(1)
(T1  D=0.794 CR=0. - ZMIN=-1.65 - FLAT END MILL)
G0 G90 G94 G17
G21
G53 Z0.

(2D POCKET3)
M5
M9
T1
S16500 M3
G4 P4.
G55
M9
G0 X117.016 Y50.761
Z15.
Z5.
G1 Z2.5 F51.
Z-0.071
G19 G3 Y50.84 Z-0.15 J0.079 K0.
G17 G3 X116.984 I-0.016 J0. F381.
X117.77 I0.393 J0.
X116.23 I-0.77 J0.
X118.524 I1.147 J0.
X115.476 I-1.524 J0.
X118.603 I1.563 J0.
X115.397 I-1.603 J0.
X118.603 I1.603 J0.
X118.582 Y50.86 I-0.02 J0.
G1 X117.037 Y50.741
G2 X117.016 Y50.761 I-0.002 J0.02
G1 Z-0.221 F51.
G19 G3 Y50.84 Z-0.3 J0.079 K0.
G17 G3 X116.984 I-0.016 J0. F381.
X117.77 I0.393 J0.
X116.23 I-0.77 J0.
X118.524 I1.147 J0.
X115.476 I-1.524 J0.
X118.603 I1.563 J0.
X115.397 I-1.603 J0.
X118.603 I1.603 J0.
X118.582 Y50.86 I-0.02 J0.
G1 X117.037 Y50.741
G2 X117.016 Y50.761 I-0.002 J0.02
G1 Z-0.371 F51.
G19 G3 Y50.84 Z-0.45 J0.079 K0.
G17 G3 X116.984 I-0.016 J0. F381.
X117.77 I0.393 J0.
X116.23 I-0.77 J0.
X118.524 I1.147 J0.
X115.476 I-1.524 J0.
X118.603 I1.563 J0.
X115.397 I-1.603 J0.
X118.603 I1.603 J0.
X118.582 Y50.86 I-0.02 J0.
G1 X117.037 Y50.741
G2 X117.016 Y50.761 I-0.002 J0.02
G1 Z-0.521 F51.
G19 G3 Y50.84 Z-0.6 J0.079 K0.
G17 G3 X116.984 I-0.016 J0. F381.
X117.77 I0.393 J0.
X116.23 I-0.77 J0.
X118.524 I1.147 J0.
X115.476 I-1.524 J0.
X118.603 I1.563 J0.
X115.397 I-1.603 J0.
X118.603 I1.603 J0.
X118.582 Y50.86 I-0.02 J0.
G1 X117.037 Y50.741
G2 X117.016 Y50.761 I-0.002 J0.02
G1 Z-0.671 F51.
G19 G3 Y50.84 Z-0.75 J0.079 K0.
G17 G3 X116.984 I-0.016 J0. F381.
X117.77 I0.393 J0.
X116.23 I-0.77 J0.
X118.524 I1.147 J0.
X115.476 I-1.524 J0.
X118.603 I1.563 J0.
X115.397 I-1.603 J0.
X118.603 I1.603 J0.
X118.582 Y50.86 I-0.02 J0.
G1 X117.037 Y50.741
G2 X117.016 Y50.761 I-0.002 J0.02
G1 Z-0.821 F51.
G19 G3 Y50.84 Z-0.9 J0.079 K0.
G17 G3 X116.984 I-0.016 J0. F381.
X117.77 I0.393 J0.
X116.23 I-0.77 J0.
X118.524 I1.147 J0.
X115.476 I-1.524 J0.
X118.603 I1.563 J0.
X115.397 I-1.603 J0.
X118.603 I1.603 J0.
X118.582 Y50.86 I-0.02 J0.
G1 X117.037 Y50.741
G2 X117.016 Y50.761 I-0.002 J0.02
G1 Z-0.971 F51.
G19 G3 Y50.84 Z-1.05 J0.079 K0.
G17 G3 X116.984 I-0.016 J0. F381.
X117.77 I0.393 J0.
X116.23 I-0.77 J0.
X118.524 I1.147 J0.
X115.476 I-1.524 J0.
X118.603 I1.563 J0.
X115.397 I-1.603 J0.
X118.603 I1.603 J0.
X118.582 Y50.86 I-0.02 J0.
G1 X117.037 Y50.741
G2 X117.016 Y50.761 I-0.002 J0.02
G1 Z-1.121 F51.
G19 G3 Y50.84 Z-1.2 J0.079 K0.
G17 G3 X116.984 I-0.016 J0. F381.
X117.77 I0.393 J0.
X116.23 I-0.77 J0.
X118.524 I1.147 J0.
X115.476 I-1.524 J0.
X118.603 I1.563 J0.
X115.397 I-1.603 J0.
X118.603 I1.603 J0.
X118.582 Y50.86 I-0.02 J0.
G1 X117.037 Y50.741
G2 X117.016 Y50.761 I-0.002 J0.02
G1 Z-1.271 F51.
G19 G3 Y50.84 Z-1.35 J0.079 K0.
G17 G3 X116.984 I-0.016 J0. F381.
X117.77 I0.393 J0.
X116.23 I-0.77 J0.
X118.524 I1.147 J0.
X115.476 I-1.524 J0.
X118.603 I1.563 J0.
X115.397 I-1.603 J0.
X118.603 I1.603 J0.
X118.582 Y50.86 I-0.02 J0.
G1 X117.037 Y50.741
G2 X117.016 Y50.761 I-0.002 J0.02
G1 Z-1.421 F51.
G19 G3 Y50.84 Z-1.5 J0.079 K0.
G17 G3 X116.984 I-0.016 J0. F381.
X117.77 I0.393 J0.
X116.23 I-0.77 J0.
X118.524 I1.147 J0.
X115.476 I-1.524 J0.
X118.603 I1.563 J0.
X115.397 I-1.603 J0.
X118.603 I1.603 J0.
X118.597 Y50.854 I-0.02 J0.
G1 X117.092 Y52.358
G3 X117.079 Y52.364 I-0.014 J-0.014
G1 Z-1.65 F51.
G3 X117. Y52.443 I-0.079 J0. F381.
Y49.237 I0. J-1.603
Y52.443 I0. J1.603
G1 Y52.292 Z-1.635
G0 Z5.
X84.69 Y27.911
G1 Z2.5 F51.
Z-0.071
G19 G3 Y27.99 Z-0.15 J0.079 K0.
G17 G3 X84.643 I-0.024 J0. F381.
X84.77 I0.063 J0.
X84.564 I-0.103 J0.
X84.77 I0.103 J0.
X84.736 Y28.004 I-0.02 J0.
G1 X84.656 Y27.925
G3 X84.685 Y27.896 I0.014 J-0.014
X84.69 Y27.911 I-0.014 J0.014
G1 Z-0.221 F51.
G19 G3 Y27.99 Z-0.3 J0.079 K0.
G17 G3 X84.643 I-0.024 J0. F381.
X84.77 I0.063 J0.
X84.564 I-0.103 J0.
X84.77 I0.103 J0.
X84.736 Y28.004 I-0.02 J0.
G1 X84.656 Y27.925
G3 X84.685 Y27.896 I0.014 J-0.014
X84.69 Y27.911 I-0.014 J0.014
G1 Z-0.371 F51.
G19 G3 Y27.99 Z-0.45 J0.079 K0.
G17 G3 X84.643 I-0.024 J0. F381.
X84.77 I0.063 J0.
X84.564 I-0.103 J0.
X84.77 I0.103 J0.
X84.736 Y28.004 I-0.02 J0.
G1 X84.656 Y27.925
G3 X84.685 Y27.896 I0.014 J-0.014
X84.69 Y27.911 I-0.014 J0.014
G1 Z-0.521 F51.
G19 G3 Y27.99 Z-0.6 J0.079 K0.
G17 G3 X84.643 I-0.024 J0. F381.
X84.77 I0.063 J0.
X84.564 I-0.103 J0.
X84.77 I0.103 J0.
X84.736 Y28.004 I-0.02 J0.
G1 X84.656 Y27.925
G3 X84.685 Y27.896 I0.014 J-0.014
X84.69 Y27.911 I-0.014 J0.014
G1 Z-0.671 F51.
G19 G3 Y27.99 Z-0.75 J0.079 K0.
G17 G3 X84.643 I-0.024 J0. F381.
X84.77 I0.063 J0.
X84.564 I-0.103 J0.
X84.77 I0.103 J0.
X84.736 Y28.004 I-0.02 J0.
G1 X84.656 Y27.925
G3 X84.685 Y27.896 I0.014 J-0.014
X84.69 Y27.911 I-0.014 J0.014
G1 Z-0.821 F51.
G19 G3 Y27.99 Z-0.9 J0.079 K0.
G17 G3 X84.643 I-0.024 J0. F381.
X84.77 I0.063 J0.
X84.564 I-0.103 J0.
X84.77 I0.103 J0.
X84.736 Y28.004 I-0.02 J0.
G1 X84.656 Y27.925
G3 X84.685 Y27.896 I0.014 J-0.014
X84.69 Y27.911 I-0.014 J0.014
G1 Z-0.971 F51.
G19 G3 Y27.99 Z-1.05 J0.079 K0.
G17 G3 X84.643 I-0.024 J0. F381.
X84.77 I0.063 J0.
X84.564 I-0.103 J0.
X84.77 I0.103 J0.
X84.736 Y28.004 I-0.02 J0.
G1 X84.656 Y27.925
G3 X84.685 Y27.896 I0.014 J-0.014
X84.69 Y27.911 I-0.014 J0.014
G1 Z-1.121 F51.
G19 G3 Y27.99 Z-1.2 J0.079 K0.
G17 G3 X84.643 I-0.024 J0. F381.
X84.77 I0.063 J0.
X84.564 I-0.103 J0.
X84.77 I0.103 J0.
X84.736 Y28.004 I-0.02 J0.
G1 X84.656 Y27.925
G3 X84.685 Y27.896 I0.014 J-0.014
X84.69 Y27.911 I-0.014 J0.014
G1 Z-1.271 F51.
G19 G3 Y27.99 Z-1.35 J0.079 K0.
G17 G3 X84.643 I-0.024 J0. F381.
X84.77 I0.063 J0.
X84.564 I-0.103 J0.
X84.77 I0.103 J0.
X84.736 Y28.004 I-0.02 J0.
G1 X84.656 Y27.925
G3 X84.685 Y27.896 I0.014 J-0.014
X84.69 Y27.911 I-0.014 J0.014
G1 Z-1.421 F51.
G19 G3 Y27.99 Z-1.5 J0.079 K0.
G17 G3 X84.643 I-0.024 J0. F381.
X84.77 I0.063 J0.
X84.564 I-0.103 J0.
X84.77 I0.103 J0.
G1 X84.766 Y27.997
X84.749 Y28.009
X84.746 Y28.014
Z-1.65 F51.
G3 X84.667 Y28.093 I-0.079 J0. F381.
Y27.887 I0. J-0.103
Y28.093 I0. J0.103
G1 Y27.99 Z-1.64
G0 Z5.
X74.54 Y27.911
G1 Z2.5 F51.
Z-0.071
G19 G3 Y27.99 Z-0.15 J0.079 K0.
G17 G3 X74.493 I-0.024 J0. F381.
X74.62 I0.063 J0.
X74.414 I-0.103 J0.
X74.62 I0.103 J0.
X74.586 Y28.004 I-0.02 J0.
G1 X74.506 Y27.925
G3 X74.535 Y27.896 I0.014 J-0.014
X74.54 Y27.911 I-0.014 J0.014
G1 Z-0.221 F51.
G19 G3 Y27.99 Z-0.3 J0.079 K0.
G17 G3 X74.493 I-0.024 J0. F381.
X74.62 I0.063 J0.
X74.414 I-0.103 J0.
X74.62 I0.103 J0.
X74.586 Y28.004 I-0.02 J0.
G1 X74.506 Y27.925
G3 X74.535 Y27.896 I0.014 J-0.014
X74.54 Y27.911 I-0.014 J0.014
G1 Z-0.371 F51.
G19 G3 Y27.99 Z-0.45 J0.079 K0.
G17 G3 X74.493 I-0.024 J0. F381.
X74.62 I0.063 J0.
X74.414 I-0.103 J0.
X74.62 I0.103 J0.
X74.586 Y28.004 I-0.02 J0.
G1 X74.506 Y27.925
G3 X74.535 Y27.896 I0.014 J-0.014
X74.54 Y27.911 I-0.014 J0.014
G1 Z-0.521 F51.
G19 G3 Y27.99 Z-0.6 J0.079 K0.
G17 G3 X74.493 I-0.024 J0. F381.
X74.62 I0.063 J0.
X74.414 I-0.103 J0.
X74.62 I0.103 J0.
X74.586 Y28.004 I-0.02 J0.
G1 X74.506 Y27.925
G3 X74.535 Y27.896 I0.014 J-0.014
X74.54 Y27.911 I-0.014 J0.014
G1 Z-0.671 F51.
G19 G3 Y27.99 Z-0.75 J0.079 K0.
G17 G3 X74.493 I-0.024 J0. F381.
X74.62 I0.063 J0.
X74.414 I-0.103 J0.
X74.62 I0.103 J0.
X74.586 Y28.004 I-0.02 J0.
G1 X74.506 Y27.925
G3 X74.535 Y27.896 I0.014 J-0.014
X74.54 Y27.911 I-0.014 J0.014
G1 Z-0.821 F51.
G19 G3 Y27.99 Z-0.9 J0.079 K0.
G17 G3 X74.493 I-0.024 J0. F381.
X74.62 I0.063 J0.
X74.414 I-0.103 J0.
X74.62 I0.103 J0.
X74.586 Y28.004 I-0.02 J0.
G1 X74.506 Y27.925
G3 X74.535 Y27.896 I0.014 J-0.014
X74.54 Y27.911 I-0.014 J0.014
G1 Z-0.971 F51.
G19 G3 Y27.99 Z-1.05 J0.079 K0.
G17 G3 X74.493 I-0.024 J0. F381.
X74.62 I0.063 J0.
X74.414 I-0.103 J0.
X74.62 I0.103 J0.
X74.586 Y28.004 I-0.02 J0.
G1 X74.506 Y27.925
G3 X74.535 Y27.896 I0.014 J-0.014
X74.54 Y27.911 I-0.014 J0.014
G1 Z-1.121 F51.
G19 G3 Y27.99 Z-1.2 J0.079 K0.
G17 G3 X74.493 I-0.024 J0. F381.
X74.62 I0.063 J0.
X74.414 I-0.103 J0.
X74.62 I0.103 J0.
X74.586 Y28.004 I-0.02 J0.
G1 X74.506 Y27.925
G3 X74.535 Y27.896 I0.014 J-0.014
X74.54 Y27.911 I-0.014 J0.014
G1 Z-1.271 F51.
G19 G3 Y27.99 Z-1.35 J0.079 K0.
G17 G3 X74.493 I-0.024 J0. F381.
X74.62 I0.063 J0.
X74.414 I-0.103 J0.
X74.62 I0.103 J0.
X74.586 Y28.004 I-0.02 J0.
G1 X74.506 Y27.925
G3 X74.535 Y27.896 I0.014 J-0.014
X74.54 Y27.911 I-0.014 J0.014
G1 Z-1.421 F51.
G19 G3 Y27.99 Z-1.5 J0.079 K0.
G17 G3 X74.493 I-0.024 J0. F381.
X74.62 I0.063 J0.
X74.414 I-0.103 J0.
X74.62 I0.103 J0.
X74.597 Y28.01 I-0.02 J0.
G1 X74.454 Y27.992
G3 X74.437 Y27.966 I0.002 J-0.02
G1 Z-1.65 F51.
G3 X74.517 Y27.887 I0.079 J0. F381.
Y28.093 I0. J0.103
Y27.887 I0. J-0.103
G1 Y27.99 Z-1.64
G0 Z5.
X84.682 Y9.921
G1 Z2.5 F51.
Z-0.071
G19 G3 Y10. Z-0.15 J0.079 K0.
G17 G3 X84.651 I-0.016 J0. F381.
X85.436 I0.393 J0.
X83.897 I-0.77 J0.
X86.19 I1.147 J0.
X83.143 I-1.524 J0.
X86.27 I1.563 J0.
X83.064 I-1.603 J0.
X86.27 I1.603 J0.
X86.248 Y10.02 I-0.02 J0.
G1 X84.704 Y9.901
G2 X84.682 Y9.921 I-0.002 J0.02
G1 Z-0.221 F51.
G19 G3 Y10. Z-0.3 J0.079 K0.
G17 G3 X84.651 I-0.016 J0. F381.
X85.436 I0.393 J0.
X83.897 I-0.77 J0.
X86.19 I1.147 J0.
X83.143 I-1.524 J0.
X86.27 I1.563 J0.
X83.064 I-1.603 J0.
X86.27 I1.603 J0.
X86.248 Y10.02 I-0.02 J0.
G1 X84.704 Y9.901
G2 X84.682 Y9.921 I-0.002 J0.02
G1 Z-0.371 F51.
G19 G3 Y10. Z-0.45 J0.079 K0.
G17 G3 X84.651 I-0.016 J0. F381.
X85.436 I0.393 J0.
X83.897 I-0.77 J0.
X86.19 I1.147 J0.
X83.143 I-1.524 J0.
X86.27 I1.563 J0.
X83.064 I-1.603 J0.
X86.27 I1.603 J0.
X86.248 Y10.02 I-0.02 J0.
G1 X84.704 Y9.901
G2 X84.682 Y9.921 I-0.002 J0.02
G1 Z-0.521 F51.
G19 G3 Y10. Z-0.6 J0.079 K0.
G17 G3 X84.651 I-0.016 J0. F381.
X85.436 I0.393 J0.
X83.897 I-0.77 J0.
X86.19 I1.147 J0.
X83.143 I-1.524 J0.
X86.27 I1.563 J0.
X83.064 I-1.603 J0.
X86.27 I1.603 J0.
X86.248 Y10.02 I-0.02 J0.
G1 X84.704 Y9.901
G2 X84.682 Y9.921 I-0.002 J0.02
G1 Z-0.671 F51.
G19 G3 Y10. Z-0.75 J0.079 K0.
G17 G3 X84.651 I-0.016 J0. F381.
X85.436 I0.393 J0.
X83.897 I-0.77 J0.
X86.19 I1.147 J0.
X83.143 I-1.524 J0.
X86.27 I1.563 J0.
X83.064 I-1.603 J0.
X86.27 I1.603 J0.
X86.248 Y10.02 I-0.02 J0.
G1 X84.704 Y9.901
G2 X84.682 Y9.921 I-0.002 J0.02
G1 Z-0.821 F51.
G19 G3 Y10. Z-0.9 J0.079 K0.
G17 G3 X84.651 I-0.016 J0. F381.
X85.436 I0.393 J0.
X83.897 I-0.77 J0.
X86.19 I1.147 J0.
X83.143 I-1.524 J0.
X86.27 I1.563 J0.
X83.064 I-1.603 J0.
X86.27 I1.603 J0.
X86.248 Y10.02 I-0.02 J0.
G1 X84.704 Y9.901
G2 X84.682 Y9.921 I-0.002 J0.02
G1 Z-0.971 F51.
G19 G3 Y10. Z-1.05 J0.079 K0.
G17 G3 X84.651 I-0.016 J0. F381.
X85.436 I0.393 J0.
X83.897 I-0.77 J0.
X86.19 I1.147 J0.
X83.143 I-1.524 J0.
X86.27 I1.563 J0.
X83.064 I-1.603 J0.
X86.27 I1.603 J0.
X86.248 Y10.02 I-0.02 J0.
G1 X84.704 Y9.901
G2 X84.682 Y9.921 I-0.002 J0.02
G1 Z-1.121 F51.
G19 G3 Y10. Z-1.2 J0.079 K0.
G17 G3 X84.651 I-0.016 J0. F381.
X85.436 I0.393 J0.
X83.897 I-0.77 J0.
X86.19 I1.147 J0.
X83.143 I-1.524 J0.
X86.27 I1.563 J0.
X83.064 I-1.603 J0.
X86.27 I1.603 J0.
X86.248 Y10.02 I-0.02 J0.
G1 X84.704 Y9.901
G2 X84.682 Y9.921 I-0.002 J0.02
G1 Z-1.271 F51.
G19 G3 Y10. Z-1.35 J0.079 K0.
G17 G3 X84.651 I-0.016 J0. F381.
X85.436 I0.393 J0.
X83.897 I-0.77 J0.
X86.19 I1.147 J0.
X83.143 I-1.524 J0.
X86.27 I1.563 J0.
X83.064 I-1.603 J0.
X86.27 I1.603 J0.
X86.248 Y10.02 I-0.02 J0.
G1 X84.704 Y9.901
G2 X84.682 Y9.921 I-0.002 J0.02
G1 Z-1.421 F51.
G19 G3 Y10. Z-1.5 J0.079 K0.
G17 G3 X84.651 I-0.016 J0. F381.
X85.436 I0.393 J0.
X83.897 I-0.77 J0.
X86.19 I1.147 J0.
X83.143 I-1.524 J0.
X86.27 I1.563 J0.
X83.064 I-1.603 J0.
X86.27 I1.603 J0.
X86.25 Y10.02 I-0.02 J0.
X86.23 Y10. I0. J-0.02
G1 Y9.92
G2 X86.21 Y9.9 I-0.02 J0.
X86.19 Y9.921 I0. J0.02
G1 Z-1.65 F51.
G3 X86.27 Y10. I0. J0.079 F381.
X83.064 I-1.603 J0.
X86.27 I1.603 J0.
G1 X86.119 Z-1.635
G0 Z5.
X122.27 Y4.921
G1 Z2.5 F51.
Z-0.071
G19 G3 Y5. Z-0.15 J0.079 K0.
G17 G3 X121.73 I-0.27 J0. F381.
X123.024 I0.647 J0.
X120.976 I-1.024 J0.
X123.103 I1.063 J0.
X120.897 I-1.103 J0.
X123.103 I1.103 J0.
X123.08 Y5.02 I-0.02 J0.
G1 X122.293 Y4.901
G2 X122.27 Y4.921 I-0.003 J0.02
G1 Z-0.221 F51.
G19 G3 Y5. Z-0.3 J0.079 K0.
G17 G3 X121.73 I-0.27 J0. F381.
X123.024 I0.647 J0.
X120.976 I-1.024 J0.
X123.103 I1.063 J0.
X120.897 I-1.103 J0.
X123.103 I1.103 J0.
X123.08 Y5.02 I-0.02 J0.
G1 X122.293 Y4.901
G2 X122.27 Y4.921 I-0.003 J0.02
G1 Z-0.371 F51.
G19 G3 Y5. Z-0.45 J0.079 K0.
G17 G3 X121.73 I-0.27 J0. F381.
X123.024 I0.647 J0.
X120.976 I-1.024 J0.
X123.103 I1.063 J0.
X120.897 I-1.103 J0.
X123.103 I1.103 J0.
X123.08 Y5.02 I-0.02 J0.
G1 X122.293 Y4.901
G2 X122.27 Y4.921 I-0.003 J0.02
G1 Z-0.521 F51.
G19 G3 Y5. Z-0.6 J0.079 K0.
G17 G3 X121.73 I-0.27 J0. F381.
X123.024 I0.647 J0.
X120.976 I-1.024 J0.
X123.103 I1.063 J0.
X120.897 I-1.103 J0.
X123.103 I1.103 J0.
X123.08 Y5.02 I-0.02 J0.
G1 X122.293 Y4.901
G2 X122.27 Y4.921 I-0.003 J0.02
G1 Z-0.671 F51.
G19 G3 Y5. Z-0.75 J0.079 K0.
G17 G3 X121.73 I-0.27 J0. F381.
X123.024 I0.647 J0.
X120.976 I-1.024 J0.
X123.103 I1.063 J0.
X120.897 I-1.103 J0.
X123.103 I1.103 J0.
X123.08 Y5.02 I-0.02 J0.
G1 X122.293 Y4.901
G2 X122.27 Y4.921 I-0.003 J0.02
G1 Z-0.821 F51.
G19 G3 Y5. Z-0.9 J0.079 K0.
G17 G3 X121.73 I-0.27 J0. F381.
X123.024 I0.647 J0.
X120.976 I-1.024 J0.
X123.103 I1.063 J0.
X120.897 I-1.103 J0.
X123.103 I1.103 J0.
X123.08 Y5.02 I-0.02 J0.
G1 X122.293 Y4.901
G2 X122.27 Y4.921 I-0.003 J0.02
G1 Z-0.971 F51.
G19 G3 Y5. Z-1.05 J0.079 K0.
G17 G3 X121.73 I-0.27 J0. F381.
X123.024 I0.647 J0.
X120.976 I-1.024 J0.
X123.103 I1.063 J0.
X120.897 I-1.103 J0.
X123.103 I1.103 J0.
X123.08 Y5.02 I-0.02 J0.
G1 X122.293 Y4.901
G2 X122.27 Y4.921 I-0.003 J0.02
G1 Z-1.121 F51.
G19 G3 Y5. Z-1.2 J0.079 K0.
G17 G3 X121.73 I-0.27 J0. F381.
X123.024 I0.647 J0.
X120.976 I-1.024 J0.
X123.103 I1.063 J0.
X120.897 I-1.103 J0.
X123.103 I1.103 J0.
X123.08 Y5.02 I-0.02 J0.
G1 X122.293 Y4.901
G2 X122.27 Y4.921 I-0.003 J0.02
G1 Z-1.271 F51.
G19 G3 Y5. Z-1.35 J0.079 K0.
G17 G3 X121.73 I-0.27 J0. F381.
X123.024 I0.647 J0.
X120.976 I-1.024 J0.
X123.103 I1.063 J0.
X120.897 I-1.103 J0.
X123.103 I1.103 J0.
X123.08 Y5.02 I-0.02 J0.
G1 X122.293 Y4.901
G2 X122.27 Y4.921 I-0.003 J0.02
G1 Z-1.421 F51.
G19 G3 Y5. Z-1.5 J0.079 K0.
G17 G3 X121.73 I-0.27 J0. F381.
X123.024 I0.647 J0.
X120.976 I-1.024 J0.
X123.103 I1.063 J0.
X120.897 I-1.103 J0.
X123.103 I1.103 J0.
X123.084 Y5.02 I-0.02 J0.
G1 X120.997 Y5.098
G3 X120.976 Y5.079 I-0.001 J-0.02
G1 Z-1.65 F51.
G3 X120.897 Y5. I0. J-0.079 F381.
X123.103 I1.103 J0.
X120.897 I-1.103 J0.
G1 X121.048 Z-1.635
G0 Z5.
X122.27 Y96.601
G1 Z2.5 F51.
Z-0.071
G19 G3 Y96.68 Z-0.15 J0.079 K0.
G17 G3 X121.73 I-0.27 J0. F381.
X123.024 I0.647 J0.
X120.976 I-1.024 J0.
X123.103 I1.063 J0.
X120.897 I-1.103 J0.
X123.103 I1.103 J0.
X123.08 Y96.7 I-0.02 J0.
G1 X122.293 Y96.581
G2 X122.27 Y96.601 I-0.003 J0.02
G1 Z-0.221 F51.
G19 G3 Y96.68 Z-0.3 J0.079 K0.
G17 G3 X121.73 I-0.27 J0. F381.
X123.024 I0.647 J0.
X120.976 I-1.024 J0.
X123.103 I1.063 J0.
X120.897 I-1.103 J0.
X123.103 I1.103 J0.
X123.08 Y96.7 I-0.02 J0.
G1 X122.293 Y96.581
G2 X122.27 Y96.601 I-0.003 J0.02
G1 Z-0.371 F51.
G19 G3 Y96.68 Z-0.45 J0.079 K0.
G17 G3 X121.73 I-0.27 J0. F381.
X123.024 I0.647 J0.
X120.976 I-1.024 J0.
X123.103 I1.063 J0.
X120.897 I-1.103 J0.
X123.103 I1.103 J0.
X123.08 Y96.7 I-0.02 J0.
G1 X122.293 Y96.581
G2 X122.27 Y96.601 I-0.003 J0.02
G1 Z-0.521 F51.
G19 G3 Y96.68 Z-0.6 J0.079 K0.
G17 G3 X121.73 I-0.27 J0. F381.
X123.024 I0.647 J0.
X120.976 I-1.024 J0.
X123.103 I1.063 J0.
X120.897 I-1.103 J0.
X123.103 I1.103 J0.
X123.08 Y96.7 I-0.02 J0.
G1 X122.293 Y96.581
G2 X122.27 Y96.601 I-0.003 J0.02
G1 Z-0.671 F51.
G19 G3 Y96.68 Z-0.75 J0.079 K0.
G17 G3 X121.73 I-0.27 J0. F381.
X123.024 I0.647 J0.
X120.976 I-1.024 J0.
X123.103 I1.063 J0.
X120.897 I-1.103 J0.
X123.103 I1.103 J0.
X123.08 Y96.7 I-0.02 J0.
G1 X122.293 Y96.581
G2 X122.27 Y96.601 I-0.003 J0.02
G1 Z-0.821 F51.
G19 G3 Y96.68 Z-0.9 J0.079 K0.
G17 G3 X121.73 I-0.27 J0. F381.
X123.024 I0.647 J0.
X120.976 I-1.024 J0.
X123.103 I1.063 J0.
X120.897 I-1.103 J0.
X123.103 I1.103 J0.
X123.08 Y96.7 I-0.02 J0.
G1 X122.293 Y96.581
G2 X122.27 Y96.601 I-0.003 J0.02
G1 Z-0.971 F51.
G19 G3 Y96.68 Z-1.05 J0.079 K0.
G17 G3 X121.73 I-0.27 J0. F381.
X123.024 I0.647 J0.
X120.976 I-1.024 J0.
X123.103 I1.063 J0.
X120.897 I-1.103 J0.
X123.103 I1.103 J0.
X123.08 Y96.7 I-0.02 J0.
G1 X122.293 Y96.581
G2 X122.27 Y96.601 I-0.003 J0.02
G1 Z-1.121 F51.
G19 G3 Y96.68 Z-1.2 J0.079 K0.
G17 G3 X121.73 I-0.27 J0. F381.
X123.024 I0.647 J0.
X120.976 I-1.024 J0.
X123.103 I1.063 J0.
X120.897 I-1.103 J0.
X123.103 I1.103 J0.
X123.08 Y96.7 I-0.02 J0.
G1 X122.293 Y96.581
G2 X122.27 Y96.601 I-0.003 J0.02
G1 Z-1.271 F51.
G19 G3 Y96.68 Z-1.35 J0.079 K0.
G17 G3 X121.73 I-0.27 J0. F381.
X123.024 I0.647 J0.
X120.976 I-1.024 J0.
X123.103 I1.063 J0.
X120.897 I-1.103 J0.
X123.103 I1.103 J0.
X123.08 Y96.7 I-0.02 J0.
G1 X122.293 Y96.581
G2 X122.27 Y96.601 I-0.003 J0.02
G1 Z-1.421 F51.
G19 G3 Y96.68 Z-1.5 J0.079 K0.
G17 G3 X121.73 I-0.27 J0. F381.
X123.024 I0.647 J0.
X120.976 I-1.024 J0.
X123.103 I1.063 J0.
X120.897 I-1.103 J0.
X123.103 I1.103 J0.
X123.084 Y96.7 I-0.02 J0.
G1 X120.997 Y96.778
G3 X120.976 Y96.759 I-0.001 J-0.02
G1 Z-1.65 F51.
G3 X120.897 Y96.68 I0. J-0.079 F381.
X123.103 I1.103 J0.
X120.897 I-1.103 J0.
G1 X121.048 Z-1.635
G0 Z15.

M9
G53 Z0.
M30
