(1)
(T1  D=0.794 CR=0. - ZMIN=-1.65 - FLAT END MILL)
G0 G90 G94 G17
G21
G53 Z0.

(2D CONTOUR1)
M5
M9
T1
S16500 M3
G4 P4.
G55
M9
G0 X94.817 Y73.69
Z15.
Z5.
G1 Z-0.15 F381.
Z0.35
G3 X94.837 Y73.67 I0.02 J0.
G1 X94.9
G3 X94.92 Y73.69 I0. J0.02
G1 Z-0.15
G3 X94.714 I-0.103 J0.
X94.92 I0.103 J0.
G1 Z5.
X94.817
Z-0.3
Z0.2
G3 X94.837 Y73.67 I0.02 J0.
G1 X94.9
G3 X94.92 Y73.69 I0. J0.02
G1 Z-0.3
G3 X94.714 I-0.103 J0.
X94.92 I0.103 J0.
G1 Z5.
X94.817
Z-0.45
Z0.05
G3 X94.837 Y73.67 I0.02 J0.
G1 X94.9
G3 X94.92 Y73.69 I0. J0.02
G1 Z-0.45
G3 X94.714 I-0.103 J0.
X94.92 I0.103 J0.
G1 Z5.
X94.817
Z-0.6
Z-0.1
G3 X94.837 Y73.67 I0.02 J0.
G1 X94.9
G3 X94.92 Y73.69 I0. J0.02
G1 Z-0.6
G3 X94.714 I-0.103 J0.
X94.92 I0.103 J0.
G1 Z5.
X94.817
Z-0.75
Z-0.25
G3 X94.837 Y73.67 I0.02 J0.
G1 X94.9
G3 X94.92 Y73.69 I0. J0.02
G1 Z-0.75
G3 X94.714 I-0.103 J0.
X94.92 I0.103 J0.
G1 Z5.
X94.817
Z-0.9
Z-0.4
G3 X94.837 Y73.67 I0.02 J0.
G1 X94.9
G3 X94.92 Y73.69 I0. J0.02
G1 Z-0.9
G3 X94.714 I-0.103 J0.
X94.92 I0.103 J0.
G1 Z5.
X94.817
Z-1.05
Z-0.55
G3 X94.837 Y73.67 I0.02 J0.
G1 X94.9
G3 X94.92 Y73.69 I0. J0.02
G1 Z-1.05
G3 X94.714 I-0.103 J0.
X94.92 I0.103 J0.
G1 Z5.
X94.817
Z-1.2
Z-0.7
G3 X94.837 Y73.67 I0.02 J0.
G1 X94.9
G3 X94.92 Y73.69 I0. J0.02
G1 Z-1.2
G3 X94.714 I-0.103 J0.
X94.92 I0.103 J0.
G1 Z5.
X94.817
Z-1.35
Z-0.85
G3 X94.837 Y73.67 I0.02 J0.
G1 X94.9
G3 X94.92 Y73.69 I0. J0.02
G1 Z-1.35
G3 X94.714 I-0.103 J0.
X94.92 I0.103 J0.
G1 Z5.
X94.817
Z-1.5
Z-1.
G3 X94.837 Y73.67 I0.02 J0.
G1 X94.9
G3 X94.92 Y73.69 I0. J0.02
G1 Z-1.5
G3 X94.714 I-0.103 J0.
X94.92 I0.103 J0.
G1 Z5.
X94.817
Z-1.65
Z-1.15
G3 X94.837 Y73.67 I0.02 J0.
G1 X94.9
G3 X94.92 Y73.69 I0. J0.02
G1 Z-1.65
G3 X94.714 I-0.103 J0.
X94.92 I0.103 J0.
G0 Z5.
X94.817 Y91.68
G1 Z-0.15 F381.
Z0.35
G3 X94.797 Y91.7 I-0.02 J0.
G1 X93.234
G3 X93.214 Y91.68 I0. J-0.02
G1 Z-0.15
G3 X96.42 I1.603 J0.
X93.214 I-1.603 J0.
G1 Z5.
X94.817
Z-0.3
Z0.2
G3 X94.797 Y91.7 I-0.02 J0.
G1 X93.234
G3 X93.214 Y91.68 I0. J-0.02
G1 Z-0.3
G3 X96.42 I1.603 J0.
X93.214 I-1.603 J0.
G1 Z5.
X94.817
Z-0.45
Z0.05
G3 X94.797 Y91.7 I-0.02 J0.
G1 X93.234
G3 X93.214 Y91.68 I0. J-0.02
G1 Z-0.45
G3 X96.42 I1.603 J0.
X93.214 I-1.603 J0.
G1 Z5.
X94.817
Z-0.6
Z-0.1
G3 X94.797 Y91.7 I-0.02 J0.
G1 X93.234
G3 X93.214 Y91.68 I0. J-0.02
G1 Z-0.6
G3 X96.42 I1.603 J0.
X93.214 I-1.603 J0.
G1 Z5.
X94.817
Z-0.75
Z-0.25
G3 X94.797 Y91.7 I-0.02 J0.
G1 X93.234
G3 X93.214 Y91.68 I0. J-0.02
G1 Z-0.75
G3 X96.42 I1.603 J0.
X93.214 I-1.603 J0.
G1 Z5.
X94.817
Z-0.9
Z-0.4
G3 X94.797 Y91.7 I-0.02 J0.
G1 X93.234
G3 X93.214 Y91.68 I0. J-0.02
G1 Z-0.9
G3 X96.42 I1.603 J0.
X93.214 I-1.603 J0.
G1 Z5.
X94.817
Z-1.05
Z-0.55
G3 X94.797 Y91.7 I-0.02 J0.
G1 X93.234
G3 X93.214 Y91.68 I0. J-0.02
G1 Z-1.05
G3 X96.42 I1.603 J0.
X93.214 I-1.603 J0.
G1 Z5.
X94.817
Z-1.2
Z-0.7
G3 X94.797 Y91.7 I-0.02 J0.
G1 X93.234
G3 X93.214 Y91.68 I0. J-0.02
G1 Z-1.2
G3 X96.42 I1.603 J0.
X93.214 I-1.603 J0.
G1 Z5.
X94.817
Z-1.35
Z-0.85
G3 X94.797 Y91.7 I-0.02 J0.
G1 X93.234
G3 X93.214 Y91.68 I0. J-0.02
G1 Z-1.35
G3 X96.42 I1.603 J0.
X93.214 I-1.603 J0.
G1 Z5.
X94.817
Z-1.5
Z-1.
G3 X94.797 Y91.7 I-0.02 J0.
G1 X93.234
G3 X93.214 Y91.68 I0. J-0.02
G1 Z-1.5
G3 X96.42 I1.603 J0.
X93.214 I-1.603 J0.
G1 Z5.
X94.817
Z-1.65
Z-1.15
G3 X94.797 Y91.7 I-0.02 J0.
G1 X93.234
G3 X93.214 Y91.68 I0. J-0.02
G1 Z-1.65
G3 X96.42 I1.603 J0.
X93.214 I-1.603 J0.
G0 Z5.
X74.517 Y73.69
G1 Z-0.15 F381.
Z0.35
G3 X74.497 Y73.71 I-0.02 J0.
G1 X74.434
G3 X74.414 Y73.69 I0. J-0.02
G1 Z-0.15
G3 X74.62 I0.103 J0.
X74.414 I-0.103 J0.
G1 Z5.
X74.517
Z-0.3
Z0.2
G3 X74.497 Y73.71 I-0.02 J0.
G1 X74.434
G3 X74.414 Y73.69 I0. J-0.02
G1 Z-0.3
G3 X74.62 I0.103 J0.
X74.414 I-0.103 J0.
G1 Z5.
X74.517
Z-0.45
Z0.05
G3 X74.497 Y73.71 I-0.02 J0.
G1 X74.434
G3 X74.414 Y73.69 I0. J-0.02
G1 Z-0.45
G3 X74.62 I0.103 J0.
X74.414 I-0.103 J0.
G1 Z5.
X74.517
Z-0.6
Z-0.1
G3 X74.497 Y73.71 I-0.02 J0.
G1 X74.434
G3 X74.414 Y73.69 I0. J-0.02
G1 Z-0.6
G3 X74.62 I0.103 J0.
X74.414 I-0.103 J0.
G1 Z5.
X74.517
Z-0.75
Z-0.25
G3 X74.497 Y73.71 I-0.02 J0.
G1 X74.434
G3 X74.414 Y73.69 I0. J-0.02
G1 Z-0.75
G3 X74.62 I0.103 J0.
X74.414 I-0.103 J0.
G1 Z5.
X74.517
Z-0.9
Z-0.4
G3 X74.497 Y73.71 I-0.02 J0.
G1 X74.434
G3 X74.414 Y73.69 I0. J-0.02
G1 Z-0.9
G3 X74.62 I0.103 J0.
X74.414 I-0.103 J0.
G1 Z5.
X74.517
Z-1.05
Z-0.55
G3 X74.497 Y73.71 I-0.02 J0.
G1 X74.434
G3 X74.414 Y73.69 I0. J-0.02
G1 Z-1.05
G3 X74.62 I0.103 J0.
X74.414 I-0.103 J0.
G1 Z5.
X74.517
Z-1.2
Z-0.7
G3 X74.497 Y73.71 I-0.02 J0.
G1 X74.434
G3 X74.414 Y73.69 I0. J-0.02
G1 Z-1.2
G3 X74.62 I0.103 J0.
X74.414 I-0.103 J0.
G1 Z5.
X74.517
Z-1.35
Z-0.85
G3 X74.497 Y73.71 I-0.02 J0.
G1 X74.434
G3 X74.414 Y73.69 I0. J-0.02
G1 Z-1.35
G3 X74.62 I0.103 J0.
X74.414 I-0.103 J0.
G1 Z5.
X74.517
Z-1.5
Z-1.
G3 X74.497 Y73.71 I-0.02 J0.
G1 X74.434
G3 X74.414 Y73.69 I0. J-0.02
G1 Z-1.5
G3 X74.62 I0.103 J0.
X74.414 I-0.103 J0.
G1 Z5.
X74.517
Z-1.65
Z-1.15
G3 X74.497 Y73.71 I-0.02 J0.
G1 X74.434
G3 X74.414 Y73.69 I0. J-0.02
G1 Z-1.65
G3 X74.62 I0.103 J0.
X74.414 I-0.103 J0.
G0 Z5.
X52.483
G1 Z-0.15 F381.
Z0.35
G3 X52.463 Y73.67 I0. J-0.02
G1 Y73.607
G3 X52.483 Y73.587 I0.02 J0.
G1 Z-0.15
G3 Y73.793 I0. J0.103
Y73.587 I0. J-0.103
G1 Z5.
Y73.69
Z-0.3
Z0.2
G3 X52.463 Y73.67 I0. J-0.02
G1 Y73.607
G3 X52.483 Y73.587 I0.02 J0.
G1 Z-0.3
G3 Y73.793 I0. J0.103
Y73.587 I0. J-0.103
G1 Z5.
Y73.69
Z-0.45
Z0.05
G3 X52.463 Y73.67 I0. J-0.02
G1 Y73.607
G3 X52.483 Y73.587 I0.02 J0.
G1 Z-0.45
G3 Y73.793 I0. J0.103
Y73.587 I0. J-0.103
G1 Z5.
Y73.69
Z-0.6
Z-0.1
G3 X52.463 Y73.67 I0. J-0.02
G1 Y73.607
G3 X52.483 Y73.587 I0.02 J0.
G1 Z-0.6
G3 Y73.793 I0. J0.103
Y73.587 I0. J-0.103
G1 Z5.
Y73.69
Z-0.75
Z-0.25
G3 X52.463 Y73.67 I0. J-0.02
G1 Y73.607
G3 X52.483 Y73.587 I0.02 J0.
G1 Z-0.75
G3 Y73.793 I0. J0.103
Y73.587 I0. J-0.103
G1 Z5.
Y73.69
Z-0.9
Z-0.4
G3 X52.463 Y73.67 I0. J-0.02
G1 Y73.607
G3 X52.483 Y73.587 I0.02 J0.
G1 Z-0.9
G3 Y73.793 I0. J0.103
Y73.587 I0. J-0.103
G1 Z5.
Y73.69
Z-1.05
Z-0.55
G3 X52.463 Y73.67 I0. J-0.02
G1 Y73.607
G3 X52.483 Y73.587 I0.02 J0.
G1 Z-1.05
G3 Y73.793 I0. J0.103
Y73.587 I0. J-0.103
G1 Z5.
Y73.69
Z-1.2
Z-0.7
G3 X52.463 Y73.67 I0. J-0.02
G1 Y73.607
G3 X52.483 Y73.587 I0.02 J0.
G1 Z-1.2
G3 Y73.793 I0. J0.103
Y73.587 I0. J-0.103
G1 Z5.
Y73.69
Z-1.35
Z-0.85
G3 X52.463 Y73.67 I0. J-0.02
G1 Y73.607
G3 X52.483 Y73.587 I0.02 J0.
G1 Z-1.35
G3 Y73.793 I0. J0.103
Y73.587 I0. J-0.103
G1 Z5.
Y73.69
Z-1.5
Z-1.
G3 X52.463 Y73.67 I0. J-0.02
G1 Y73.607
G3 X52.483 Y73.587 I0.02 J0.
G1 Z-1.5
G3 Y73.793 I0. J0.103
Y73.587 I0. J-0.103
G1 Z5.
Y73.69
Z-1.65
Z-1.15
G3 X52.463 Y73.67 I0. J-0.02
G1 Y73.607
G3 X52.483 Y73.587 I0.02 J0.
G1 Z-1.65
G3 Y73.793 I0. J0.103
Y73.587 I0. J-0.103
G0 Z5.
X32.183 Y73.69
G1 Z-0.15 F381.
Z0.35
G3 X32.203 Y73.71 I0. J0.02
G1 Y73.773
G3 X32.183 Y73.793 I-0.02 J0.
G1 Z-0.15
G3 Y73.587 I0. J-0.103
Y73.793 I0. J0.103
G1 Z5.
Y73.69
Z-0.3
Z0.2
G3 X32.203 Y73.71 I0. J0.02
G1 Y73.773
G3 X32.183 Y73.793 I-0.02 J0.
G1 Z-0.3
G3 Y73.587 I0. J-0.103
Y73.793 I0. J0.103
G1 Z5.
Y73.69
Z-0.45
Z0.05
G3 X32.203 Y73.71 I0. J0.02
G1 Y73.773
G3 X32.183 Y73.793 I-0.02 J0.
G1 Z-0.45
G3 Y73.587 I0. J-0.103
Y73.793 I0. J0.103
G1 Z5.
Y73.69
Z-0.6
Z-0.1
G3 X32.203 Y73.71 I0. J0.02
G1 Y73.773
G3 X32.183 Y73.793 I-0.02 J0.
G1 Z-0.6
G3 Y73.587 I0. J-0.103
Y73.793 I0. J0.103
G1 Z5.
Y73.69
Z-0.75
Z-0.25
G3 X32.203 Y73.71 I0. J0.02
G1 Y73.773
G3 X32.183 Y73.793 I-0.02 J0.
G1 Z-0.75
G3 Y73.587 I0. J-0.103
Y73.793 I0. J0.103
G1 Z5.
Y73.69
Z-0.9
Z-0.4
G3 X32.203 Y73.71 I0. J0.02
G1 Y73.773
G3 X32.183 Y73.793 I-0.02 J0.
G1 Z-0.9
G3 Y73.587 I0. J-0.103
Y73.793 I0. J0.103
G1 Z5.
Y73.69
Z-1.05
Z-0.55
G3 X32.203 Y73.71 I0. J0.02
G1 Y73.773
G3 X32.183 Y73.793 I-0.02 J0.
G1 Z-1.05
G3 Y73.587 I0. J-0.103
Y73.793 I0. J0.103
G1 Z5.
Y73.69
Z-1.2
Z-0.7
G3 X32.203 Y73.71 I0. J0.02
G1 Y73.773
G3 X32.183 Y73.793 I-0.02 J0.
G1 Z-1.2
G3 Y73.587 I0. J-0.103
Y73.793 I0. J0.103
G1 Z5.
Y73.69
Z-1.35
Z-0.85
G3 X32.203 Y73.71 I0. J0.02
G1 Y73.773
G3 X32.183 Y73.793 I-0.02 J0.
G1 Z-1.35
G3 Y73.587 I0. J-0.103
Y73.793 I0. J0.103
G1 Z5.
Y73.69
Z-1.5
Z-1.
G3 X32.203 Y73.71 I0. J0.02
G1 Y73.773
G3 X32.183 Y73.793 I-0.02 J0.
G1 Z-1.5
G3 Y73.587 I0. J-0.103
Y73.793 I0. J0.103
G1 Z5.
Y73.69
Z-1.65
Z-1.15
G3 X32.203 Y73.71 I0. J0.02
G1 Y73.773
G3 X32.183 Y73.793 I-0.02 J0.
G1 Z-1.65
G3 Y73.587 I0. J-0.103
Y73.793 I0. J0.103
G0 Z5.
Y91.68
G1 Z-0.15 F381.
Z0.35
G3 X32.163 Y91.7 I-0.02 J0.
G1 X30.6
G3 X30.58 Y91.68 I0. J-0.02
G1 Z-0.15
G3 X33.786 I1.603 J0.
X30.58 I-1.603 J0.
G1 Z5.
X32.183
Z-0.3
Z0.2
G3 X32.163 Y91.7 I-0.02 J0.
G1 X30.6
G3 X30.58 Y91.68 I0. J-0.02
G1 Z-0.3
G3 X33.786 I1.603 J0.
X30.58 I-1.603 J0.
G1 Z5.
X32.183
Z-0.45
Z0.05
G3 X32.163 Y91.7 I-0.02 J0.
G1 X30.6
G3 X30.58 Y91.68 I0. J-0.02
G1 Z-0.45
G3 X33.786 I1.603 J0.
X30.58 I-1.603 J0.
G1 Z5.
X32.183
Z-0.6
Z-0.1
G3 X32.163 Y91.7 I-0.02 J0.
G1 X30.6
G3 X30.58 Y91.68 I0. J-0.02
G1 Z-0.6
G3 X33.786 I1.603 J0.
X30.58 I-1.603 J0.
G1 Z5.
X32.183
Z-0.75
Z-0.25
G3 X32.163 Y91.7 I-0.02 J0.
G1 X30.6
G3 X30.58 Y91.68 I0. J-0.02
G1 Z-0.75
G3 X33.786 I1.603 J0.
X30.58 I-1.603 J0.
G1 Z5.
X32.183
Z-0.9
Z-0.4
G3 X32.163 Y91.7 I-0.02 J0.
G1 X30.6
G3 X30.58 Y91.68 I0. J-0.02
G1 Z-0.9
G3 X33.786 I1.603 J0.
X30.58 I-1.603 J0.
G1 Z5.
X32.183
Z-1.05
Z-0.55
G3 X32.163 Y91.7 I-0.02 J0.
G1 X30.6
G3 X30.58 Y91.68 I0. J-0.02
G1 Z-1.05
G3 X33.786 I1.603 J0.
X30.58 I-1.603 J0.
G1 Z5.
X32.183
Z-1.2
Z-0.7
G3 X32.163 Y91.7 I-0.02 J0.
G1 X30.6
G3 X30.58 Y91.68 I0. J-0.02
G1 Z-1.2
G3 X33.786 I1.603 J0.
X30.58 I-1.603 J0.
G1 Z5.
X32.183
Z-1.35
Z-0.85
G3 X32.163 Y91.7 I-0.02 J0.
G1 X30.6
G3 X30.58 Y91.68 I0. J-0.02
G1 Z-1.35
G3 X33.786 I1.603 J0.
X30.58 I-1.603 J0.
G1 Z5.
X32.183
Z-1.5
Z-1.
G3 X32.163 Y91.7 I-0.02 J0.
G1 X30.6
G3 X30.58 Y91.68 I0. J-0.02
G1 Z-1.5
G3 X33.786 I1.603 J0.
X30.58 I-1.603 J0.
G1 Z5.
X32.183
Z-1.65
Z-1.15
G3 X32.163 Y91.7 I-0.02 J0.
G1 X30.6
G3 X30.58 Y91.68 I0. J-0.02
G1 Z-1.65
G3 X33.786 I1.603 J0.
X30.58 I-1.603 J0.
G0 Z5.
X5. Y96.68
G1 Z-0.15 F381.
Z0.35
G3 X4.98 Y96.7 I-0.02 J0.
G1 X3.917
G3 X3.897 Y96.68 I0. J-0.02
G1 Z-0.15
G3 X6.103 I1.103 J0.
X3.897 I-1.103 J0.
G1 Z5.
X5.
Z-0.3
Z0.2
G3 X4.98 Y96.7 I-0.02 J0.
G1 X3.917
G3 X3.897 Y96.68 I0. J-0.02
G1 Z-0.3
G3 X6.103 I1.103 J0.
X3.897 I-1.103 J0.
G1 Z5.
X5.
Z-0.45
Z0.05
G3 X4.98 Y96.7 I-0.02 J0.
G1 X3.917
G3 X3.897 Y96.68 I0. J-0.02
G1 Z-0.45
G3 X6.103 I1.103 J0.
X3.897 I-1.103 J0.
G1 Z5.
X5.
Z-0.6
Z-0.1
G3 X4.98 Y96.7 I-0.02 J0.
G1 X3.917
G3 X3.897 Y96.68 I0. J-0.02
G1 Z-0.6
G3 X6.103 I1.103 J0.
X3.897 I-1.103 J0.
G1 Z5.
X5.
Z-0.75
Z-0.25
G3 X4.98 Y96.7 I-0.02 J0.
G1 X3.917
G3 X3.897 Y96.68 I0. J-0.02
G1 Z-0.75
G3 X6.103 I1.103 J0.
X3.897 I-1.103 J0.
G1 Z5.
X5.
Z-0.9
Z-0.4
G3 X4.98 Y96.7 I-0.02 J0.
G1 X3.917
G3 X3.897 Y96.68 I0. J-0.02
G1 Z-0.9
G3 X6.103 I1.103 J0.
X3.897 I-1.103 J0.
G1 Z5.
X5.
Z-1.05
Z-0.55
G3 X4.98 Y96.7 I-0.02 J0.
G1 X3.917
G3 X3.897 Y96.68 I0. J-0.02
G1 Z-1.05
G3 X6.103 I1.103 J0.
X3.897 I-1.103 J0.
G1 Z5.
X5.
Z-1.2
Z-0.7
G3 X4.98 Y96.7 I-0.02 J0.
G1 X3.917
G3 X3.897 Y96.68 I0. J-0.02
G1 Z-1.2
G3 X6.103 I1.103 J0.
X3.897 I-1.103 J0.
G1 Z5.
X5.
Z-1.35
Z-0.85
G3 X4.98 Y96.7 I-0.02 J0.
G1 X3.917
G3 X3.897 Y96.68 I0. J-0.02
G1 Z-1.35
G3 X6.103 I1.103 J0.
X3.897 I-1.103 J0.
G1 Z5.
X5.
Z-1.5
Z-1.
G3 X4.98 Y96.7 I-0.02 J0.
G1 X3.917
G3 X3.897 Y96.68 I0. J-0.02
G1 Z-1.5
G3 X6.103 I1.103 J0.
X3.897 I-1.103 J0.
G1 Z5.
X5.
Z-1.65
Z-1.15
G3 X4.98 Y96.7 I-0.02 J0.
G1 X3.917
G3 X3.897 Y96.68 I0. J-0.02
G1 Z-1.65
G3 X6.103 I1.103 J0.
X3.897 I-1.103 J0.
G0 Z5.
X10. Y50.84
G1 Z-0.15 F381.
Z0.35
G3 X10.02 Y50.86 I0. J0.02
G1 Y52.423
G3 X10. Y52.443 I-0.02 J0.
G1 Z-0.15
G3 Y49.237 I0. J-1.603
Y52.443 I0. J1.603
G1 Z5.
Y50.84
Z-0.3
Z0.2
G3 X10.02 Y50.86 I0. J0.02
G1 Y52.423
G3 X10. Y52.443 I-0.02 J0.
G1 Z-0.3
G3 Y49.237 I0. J-1.603
Y52.443 I0. J1.603
G1 Z5.
Y50.84
Z-0.45
Z0.05
G3 X10.02 Y50.86 I0. J0.02
G1 Y52.423
G3 X10. Y52.443 I-0.02 J0.
G1 Z-0.45
G3 Y49.237 I0. J-1.603
Y52.443 I0. J1.603
G1 Z5.
Y50.84
Z-0.6
Z-0.1
G3 X10.02 Y50.86 I0. J0.02
G1 Y52.423
G3 X10. Y52.443 I-0.02 J0.
G1 Z-0.6
G3 Y49.237 I0. J-1.603
Y52.443 I0. J1.603
G1 Z5.
Y50.84
Z-0.75
Z-0.25
G3 X10.02 Y50.86 I0. J0.02
G1 Y52.423
G3 X10. Y52.443 I-0.02 J0.
G1 Z-0.75
G3 Y49.237 I0. J-1.603
Y52.443 I0. J1.603
G1 Z5.
Y50.84
Z-0.9
Z-0.4
G3 X10.02 Y50.86 I0. J0.02
G1 Y52.423
G3 X10. Y52.443 I-0.02 J0.
G1 Z-0.9
G3 Y49.237 I0. J-1.603
Y52.443 I0. J1.603
G1 Z5.
Y50.84
Z-1.05
Z-0.55
G3 X10.02 Y50.86 I0. J0.02
G1 Y52.423
G3 X10. Y52.443 I-0.02 J0.
G1 Z-1.05
G3 Y49.237 I0. J-1.603
Y52.443 I0. J1.603
G1 Z5.
Y50.84
Z-1.2
Z-0.7
G3 X10.02 Y50.86 I0. J0.02
G1 Y52.423
G3 X10. Y52.443 I-0.02 J0.
G1 Z-1.2
G3 Y49.237 I0. J-1.603
Y52.443 I0. J1.603
G1 Z5.
Y50.84
Z-1.35
Z-0.85
G3 X10.02 Y50.86 I0. J0.02
G1 Y52.423
G3 X10. Y52.443 I-0.02 J0.
G1 Z-1.35
G3 Y49.237 I0. J-1.603
Y52.443 I0. J1.603
G1 Z5.
Y50.84
Z-1.5
Z-1.
G3 X10.02 Y50.86 I0. J0.02
G1 Y52.423
G3 X10. Y52.443 I-0.02 J0.
G1 Z-1.5
G3 Y49.237 I0. J-1.603
Y52.443 I0. J1.603
G1 Z5.
Y50.84
Z-1.65
Z-1.15
G3 X10.02 Y50.86 I0. J0.02
G1 Y52.423
G3 X10. Y52.443 I-0.02 J0.
G1 Z-1.65
G3 Y49.237 I0. J-1.603
Y52.443 I0. J1.603
G0 Z5.
X32.183 Y27.99
G1 Z-0.15 F381.
Z0.35
G3 X32.163 Y27.97 I0. J-0.02
G1 Y27.907
G3 X32.183 Y27.887 I0.02 J0.
G1 Z-0.15
G3 Y28.093 I0. J0.103
Y27.887 I0. J-0.103
G1 Z5.
Y27.99
Z-0.3
Z0.2
G3 X32.163 Y27.97 I0. J-0.02
G1 Y27.907
G3 X32.183 Y27.887 I0.02 J0.
G1 Z-0.3
G3 Y28.093 I0. J0.103
Y27.887 I0. J-0.103
G1 Z5.
Y27.99
Z-0.45
Z0.05
G3 X32.163 Y27.97 I0. J-0.02
G1 Y27.907
G3 X32.183 Y27.887 I0.02 J0.
G1 Z-0.45
G3 Y28.093 I0. J0.103
Y27.887 I0. J-0.103
G1 Z5.
Y27.99
Z-0.6
Z-0.1
G3 X32.163 Y27.97 I0. J-0.02
G1 Y27.907
G3 X32.183 Y27.887 I0.02 J0.
G1 Z-0.6
G3 Y28.093 I0. J0.103
Y27.887 I0. J-0.103
G1 Z5.
Y27.99
Z-0.75
Z-0.25
G3 X32.163 Y27.97 I0. J-0.02
G1 Y27.907
G3 X32.183 Y27.887 I0.02 J0.
G1 Z-0.75
G3 Y28.093 I0. J0.103
Y27.887 I0. J-0.103
G1 Z5.
Y27.99
Z-0.9
Z-0.4
G3 X32.163 Y27.97 I0. J-0.02
G1 Y27.907
G3 X32.183 Y27.887 I0.02 J0.
G1 Z-0.9
G3 Y28.093 I0. J0.103
Y27.887 I0. J-0.103
G1 Z5.
Y27.99
Z-1.05
Z-0.55
G3 X32.163 Y27.97 I0. J-0.02
G1 Y27.907
G3 X32.183 Y27.887 I0.02 J0.
G1 Z-1.05
G3 Y28.093 I0. J0.103
Y27.887 I0. J-0.103
G1 Z5.
Y27.99
Z-1.2
Z-0.7
G3 X32.163 Y27.97 I0. J-0.02
G1 Y27.907
G3 X32.183 Y27.887 I0.02 J0.
G1 Z-1.2
G3 Y28.093 I0. J0.103
Y27.887 I0. J-0.103
G1 Z5.
Y27.99
Z-1.35
Z-0.85
G3 X32.163 Y27.97 I0. J-0.02
G1 Y27.907
G3 X32.183 Y27.887 I0.02 J0.
G1 Z-1.35
G3 Y28.093 I0. J0.103
Y27.887 I0. J-0.103
G1 Z5.
Y27.99
Z-1.5
Z-1.
G3 X32.163 Y27.97 I0. J-0.02
G1 Y27.907
G3 X32.183 Y27.887 I0.02 J0.
G1 Z-1.5
G3 Y28.093 I0. J0.103
Y27.887 I0. J-0.103
G1 Z5.
Y27.99
Z-1.65
Z-1.15
G3 X32.163 Y27.97 I0. J-0.02
G1 Y27.907
G3 X32.183 Y27.887 I0.02 J0.
G1 Z-1.65
G3 Y28.093 I0. J0.103
Y27.887 I0. J-0.103
G0 Z5.
X42.333 Y27.99
G1 Z-0.15 F381.
Z0.35
G3 X42.353 Y28.01 I0. J0.02
G1 Y28.073
G3 X42.333 Y28.093 I-0.02 J0.
G1 Z-0.15
G3 Y27.887 I0. J-0.103
Y28.093 I0. J0.103
G1 Z5.
Y27.99
Z-0.3
Z0.2
G3 X42.353 Y28.01 I0. J0.02
G1 Y28.073
G3 X42.333 Y28.093 I-0.02 J0.
G1 Z-0.3
G3 Y27.887 I0. J-0.103
Y28.093 I0. J0.103
G1 Z5.
Y27.99
Z-0.45
Z0.05
G3 X42.353 Y28.01 I0. J0.02
G1 Y28.073
G3 X42.333 Y28.093 I-0.02 J0.
G1 Z-0.45
G3 Y27.887 I0. J-0.103
Y28.093 I0. J0.103
G1 Z5.
Y27.99
Z-0.6
Z-0.1
G3 X42.353 Y28.01 I0. J0.02
G1 Y28.073
G3 X42.333 Y28.093 I-0.02 J0.
G1 Z-0.6
G3 Y27.887 I0. J-0.103
Y28.093 I0. J0.103
G1 Z5.
Y27.99
Z-0.75
Z-0.25
G3 X42.353 Y28.01 I0. J0.02
G1 Y28.073
G3 X42.333 Y28.093 I-0.02 J0.
G1 Z-0.75
G3 Y27.887 I0. J-0.103
Y28.093 I0. J0.103
G1 Z5.
Y27.99
Z-0.9
Z-0.4
G3 X42.353 Y28.01 I0. J0.02
G1 Y28.073
G3 X42.333 Y28.093 I-0.02 J0.
G1 Z-0.9
G3 Y27.887 I0. J-0.103
Y28.093 I0. J0.103
G1 Z5.
Y27.99
Z-1.05
Z-0.55
G3 X42.353 Y28.01 I0. J0.02
G1 Y28.073
G3 X42.333 Y28.093 I-0.02 J0.
G1 Z-1.05
G3 Y27.887 I0. J-0.103
Y28.093 I0. J0.103
G1 Z5.
Y27.99
Z-1.2
Z-0.7
G3 X42.353 Y28.01 I0. J0.02
G1 Y28.073
G3 X42.333 Y28.093 I-0.02 J0.
G1 Z-1.2
G3 Y27.887 I0. J-0.103
Y28.093 I0. J0.103
G1 Z5.
Y27.99
Z-1.35
Z-0.85
G3 X42.353 Y28.01 I0. J0.02
G1 Y28.073
G3 X42.333 Y28.093 I-0.02 J0.
G1 Z-1.35
G3 Y27.887 I0. J-0.103
Y28.093 I0. J0.103
G1 Z5.
Y27.99
Z-1.5
Z-1.
G3 X42.353 Y28.01 I0. J0.02
G1 Y28.073
G3 X42.333 Y28.093 I-0.02 J0.
G1 Z-1.5
G3 Y27.887 I0. J-0.103
Y28.093 I0. J0.103
G1 Z5.
Y27.99
Z-1.65
Z-1.15
G3 X42.353 Y28.01 I0. J0.02
G1 Y28.073
G3 X42.333 Y28.093 I-0.02 J0.
G1 Z-1.65
G3 Y27.887 I0. J-0.103
Y28.093 I0. J0.103
G0 Z5.
X32.183 Y10.
G1 Z-0.15 F381.
Z0.35
G3 X32.191 Y10.027 I-0.01 J0.018
G1 X31.445 Y11.401
G3 X31.418 Y11.409 I-0.018 J-0.01
G1 Z-0.15
G3 X32.948 Y8.591 I0.765 J-1.409
X31.418 Y11.409 I-0.765 J1.409
G1 Z5.
X32.183 Y10.
Z-0.3
Z0.2
G3 X32.191 Y10.027 I-0.01 J0.018
G1 X31.445 Y11.401
G3 X31.418 Y11.409 I-0.018 J-0.01
G1 Z-0.3
G3 X32.948 Y8.591 I0.765 J-1.409
X31.418 Y11.409 I-0.765 J1.409
G1 Z5.
X32.183 Y10.
Z-0.45
Z0.05
G3 X32.191 Y10.027 I-0.01 J0.018
G1 X31.445 Y11.401
G3 X31.418 Y11.409 I-0.018 J-0.01
G1 Z-0.45
G3 X32.948 Y8.591 I0.765 J-1.409
X31.418 Y11.409 I-0.765 J1.409
G1 Z5.
X32.183 Y10.
Z-0.6
Z-0.1
G3 X32.191 Y10.027 I-0.01 J0.018
G1 X31.445 Y11.401
G3 X31.418 Y11.409 I-0.018 J-0.01
G1 Z-0.6
G3 X32.948 Y8.591 I0.765 J-1.409
X31.418 Y11.409 I-0.765 J1.409
G1 Z5.
X32.183 Y10.
Z-0.75
Z-0.25
G3 X32.191 Y10.027 I-0.01 J0.018
G1 X31.445 Y11.401
G3 X31.418 Y11.409 I-0.018 J-0.01
G1 Z-0.75
G3 X32.948 Y8.591 I0.765 J-1.409
X31.418 Y11.409 I-0.765 J1.409
G1 Z5.
X32.183 Y10.
Z-0.9
Z-0.4
G3 X32.191 Y10.027 I-0.01 J0.018
G1 X31.445 Y11.401
G3 X31.418 Y11.409 I-0.018 J-0.01
G1 Z-0.9
G3 X32.948 Y8.591 I0.765 J-1.409
X31.418 Y11.409 I-0.765 J1.409
G1 Z5.
X32.183 Y10.
Z-1.05
Z-0.55
G3 X32.191 Y10.027 I-0.01 J0.018
G1 X31.445 Y11.401
G3 X31.418 Y11.409 I-0.018 J-0.01
G1 Z-1.05
G3 X32.948 Y8.591 I0.765 J-1.409
X31.418 Y11.409 I-0.765 J1.409
G1 Z5.
X32.183 Y10.
Z-1.2
Z-0.7
G3 X32.191 Y10.027 I-0.01 J0.018
G1 X31.445 Y11.401
G3 X31.418 Y11.409 I-0.018 J-0.01
G1 Z-1.2
G3 X32.948 Y8.591 I0.765 J-1.409
X31.418 Y11.409 I-0.765 J1.409
G1 Z5.
X32.183 Y10.
Z-1.35
Z-0.85
G3 X32.191 Y10.027 I-0.01 J0.018
G1 X31.445 Y11.401
G3 X31.418 Y11.409 I-0.018 J-0.01
G1 Z-1.35
G3 X32.948 Y8.591 I0.765 J-1.409
X31.418 Y11.409 I-0.765 J1.409
G1 Z5.
X32.183 Y10.
Z-1.5
Z-1.
G3 X32.191 Y10.027 I-0.01 J0.018
G1 X31.445 Y11.401
G3 X31.418 Y11.409 I-0.018 J-0.01
G1 Z-1.5
G3 X32.948 Y8.591 I0.765 J-1.409
X31.418 Y11.409 I-0.765 J1.409
G1 Z5.
X32.183 Y10.
Z-1.65
Z-1.15
G3 X32.191 Y10.027 I-0.01 J0.018
G1 X31.445 Y11.401
G3 X31.418 Y11.409 I-0.018 J-0.01
G1 Z-1.65
G3 X32.948 Y8.591 I0.765 J-1.409
X31.418 Y11.409 I-0.765 J1.409
G0 Z5.
X5. Y5.
G1 Z-0.15 F381.
Z0.35
G3 X4.98 Y5.02 I-0.02 J0.
G1 X3.917
G3 X3.897 Y5. I0. J-0.02
G1 Z-0.15
G3 X6.103 I1.103 J0.
X3.897 I-1.103 J0.
G1 Z5.
X5.
Z-0.3
Z0.2
G3 X4.98 Y5.02 I-0.02 J0.
G1 X3.917
G3 X3.897 Y5. I0. J-0.02
G1 Z-0.3
G3 X6.103 I1.103 J0.
X3.897 I-1.103 J0.
G1 Z5.
X5.
Z-0.45
Z0.05
G3 X4.98 Y5.02 I-0.02 J0.
G1 X3.917
G3 X3.897 Y5. I0. J-0.02
G1 Z-0.45
G3 X6.103 I1.103 J0.
X3.897 I-1.103 J0.
G1 Z5.
X5.
Z-0.6
Z-0.1
G3 X4.98 Y5.02 I-0.02 J0.
G1 X3.917
G3 X3.897 Y5. I0. J-0.02
G1 Z-0.6
G3 X6.103 I1.103 J0.
X3.897 I-1.103 J0.
G1 Z5.
X5.
Z-0.75
Z-0.25
G3 X4.98 Y5.02 I-0.02 J0.
G1 X3.917
G3 X3.897 Y5. I0. J-0.02
G1 Z-0.75
G3 X6.103 I1.103 J0.
X3.897 I-1.103 J0.
G1 Z5.
X5.
Z-0.9
Z-0.4
G3 X4.98 Y5.02 I-0.02 J0.
G1 X3.917
G3 X3.897 Y5. I0. J-0.02
G1 Z-0.9
G3 X6.103 I1.103 J0.
X3.897 I-1.103 J0.
G1 Z5.
X5.
Z-1.05
Z-0.55
G3 X4.98 Y5.02 I-0.02 J0.
G1 X3.917
G3 X3.897 Y5. I0. J-0.02
G1 Z-1.05
G3 X6.103 I1.103 J0.
X3.897 I-1.103 J0.
G1 Z5.
X5.
Z-1.2
Z-0.7
G3 X4.98 Y5.02 I-0.02 J0.
G1 X3.917
G3 X3.897 Y5. I0. J-0.02
G1 Z-1.2
G3 X6.103 I1.103 J0.
X3.897 I-1.103 J0.
G1 Z5.
X5.
Z-1.35
Z-0.85
G3 X4.98 Y5.02 I-0.02 J0.
G1 X3.917
G3 X3.897 Y5. I0. J-0.02
G1 Z-1.35
G3 X6.103 I1.103 J0.
X3.897 I-1.103 J0.
G1 Z5.
X5.
Z-1.5
Z-1.
G3 X4.98 Y5.02 I-0.02 J0.
G1 X3.917
G3 X3.897 Y5. I0. J-0.02
G1 Z-1.5
G3 X6.103 I1.103 J0.
X3.897 I-1.103 J0.
G1 Z5.
X5.
Z-1.65
Z-1.15
G3 X4.98 Y5.02 I-0.02 J0.
G1 X3.917
G3 X3.897 Y5. I0. J-0.02
G1 Z-1.65
G3 X6.103 I1.103 J0.
X3.897 I-1.103 J0.
G0 Z5.
X63.5 Y10.
G1 Z-0.15 F381.
Z0.35
G3 X63.48 Y10.02 I-0.02 J0.
G1 X61.917
G3 X61.897 Y10. I0. J-0.02
G1 Z-0.15
G3 X65.103 I1.603 J0.
X61.897 I-1.603 J0.
G1 Z5.
X63.5
Z-0.3
Z0.2
G3 X63.48 Y10.02 I-0.02 J0.
G1 X61.917
G3 X61.897 Y10. I0. J-0.02
G1 Z-0.3
G3 X65.103 I1.603 J0.
X61.897 I-1.603 J0.
G1 Z5.
X63.5
Z-0.45
Z0.05
G3 X63.48 Y10.02 I-0.02 J0.
G1 X61.917
G3 X61.897 Y10. I0. J-0.02
G1 Z-0.45
G3 X65.103 I1.603 J0.
X61.897 I-1.603 J0.
G1 Z5.
X63.5
Z-0.6
Z-0.1
G3 X63.48 Y10.02 I-0.02 J0.
G1 X61.917
G3 X61.897 Y10. I0. J-0.02
G1 Z-0.6
G3 X65.103 I1.603 J0.
X61.897 I-1.603 J0.
G1 Z5.
X63.5
Z-0.75
Z-0.25
G3 X63.48 Y10.02 I-0.02 J0.
G1 X61.917
G3 X61.897 Y10. I0. J-0.02
G1 Z-0.75
G3 X65.103 I1.603 J0.
X61.897 I-1.603 J0.
G1 Z5.
X63.5
Z-0.9
Z-0.4
G3 X63.48 Y10.02 I-0.02 J0.
G1 X61.917
G3 X61.897 Y10. I0. J-0.02
G1 Z-0.9
G3 X65.103 I1.603 J0.
X61.897 I-1.603 J0.
G1 Z5.
X63.5
Z-1.05
Z-0.55
G3 X63.48 Y10.02 I-0.02 J0.
G1 X61.917
G3 X61.897 Y10. I0. J-0.02
G1 Z-1.05
G3 X65.103 I1.603 J0.
X61.897 I-1.603 J0.
G1 Z5.
X63.5
Z-1.2
Z-0.7
G3 X63.48 Y10.02 I-0.02 J0.
G1 X61.917
G3 X61.897 Y10. I0. J-0.02
G1 Z-1.2
G3 X65.103 I1.603 J0.
X61.897 I-1.603 J0.
G1 Z5.
X63.5
Z-1.35
Z-0.85
G3 X63.48 Y10.02 I-0.02 J0.
G1 X61.917
G3 X61.897 Y10. I0. J-0.02
G1 Z-1.35
G3 X65.103 I1.603 J0.
X61.897 I-1.603 J0.
G1 Z5.
X63.5
Z-1.5
Z-1.
G3 X63.48 Y10.02 I-0.02 J0.
G1 X61.917
G3 X61.897 Y10. I0. J-0.02
G1 Z-1.5
G3 X65.103 I1.603 J0.
X61.897 I-1.603 J0.
G1 Z5.
X63.5
Z-1.65
Z-1.15
G3 X63.48 Y10.02 I-0.02 J0.
G1 X61.917
G3 X61.897 Y10. I0. J-0.02
G1 Z-1.65
G3 X65.103 I1.603 J0.
X61.897 I-1.603 J0.
G0 Z5.
X84.667
G1 Z-0.15 F381.
Z0.35
G3 X84.647 Y10.02 I-0.02 J0.
G1 X83.084
G3 X83.064 Y10. I0. J-0.02
G1 Z-0.15
G3 X86.27 I1.603 J0.
X83.064 I-1.603 J0.
G1 Z5.
X84.667
Z-0.3
Z0.2
G3 X84.647 Y10.02 I-0.02 J0.
G1 X83.084
G3 X83.064 Y10. I0. J-0.02
G1 Z-0.3
G3 X86.27 I1.603 J0.
X83.064 I-1.603 J0.
G1 Z5.
X84.667
Z-0.45
Z0.05
G3 X84.647 Y10.02 I-0.02 J0.
G1 X83.084
G3 X83.064 Y10. I0. J-0.02
G1 Z-0.45
G3 X86.27 I1.603 J0.
X83.064 I-1.603 J0.
G1 Z5.
X84.667
Z-0.6
Z-0.1
G3 X84.647 Y10.02 I-0.02 J0.
G1 X83.084
G3 X83.064 Y10. I0. J-0.02
G1 Z-0.6
G3 X86.27 I1.603 J0.
X83.064 I-1.603 J0.
G1 Z5.
X84.667
Z-0.75
Z-0.25
G3 X84.647 Y10.02 I-0.02 J0.
G1 X83.084
G3 X83.064 Y10. I0. J-0.02
G1 Z-0.75
G3 X86.27 I1.603 J0.
X83.064 I-1.603 J0.
G1 Z5.
X84.667
Z-0.9
Z-0.4
G3 X84.647 Y10.02 I-0.02 J0.
G1 X83.084
G3 X83.064 Y10. I0. J-0.02
G1 Z-0.9
G3 X86.27 I1.603 J0.
X83.064 I-1.603 J0.
G1 Z5.
X84.667
Z-1.05
Z-0.55
G3 X84.647 Y10.02 I-0.02 J0.
G1 X83.084
G3 X83.064 Y10. I0. J-0.02
G1 Z-1.05
G3 X86.27 I1.603 J0.
X83.064 I-1.603 J0.
G1 Z5.
X84.667
Z-1.2
Z-0.7
G3 X84.647 Y10.02 I-0.02 J0.
G1 X83.084
G3 X83.064 Y10. I0. J-0.02
G1 Z-1.2
G3 X86.27 I1.603 J0.
X83.064 I-1.603 J0.
G1 Z5.
X84.667
Z-1.35
Z-0.85
G3 X84.647 Y10.02 I-0.02 J0.
G1 X83.084
G3 X83.064 Y10. I0. J-0.02
G1 Z-1.35
G3 X86.27 I1.603 J0.
X83.064 I-1.603 J0.
G1 Z5.
X84.667
Z-1.5
Z-1.
G3 X84.647 Y10.02 I-0.02 J0.
G1 X83.084
G3 X83.064 Y10. I0. J-0.02
G1 Z-1.5
G3 X86.27 I1.603 J0.
X83.064 I-1.603 J0.
G1 Z5.
X84.667
Z-1.65
Z-1.15
G3 X84.647 Y10.02 I-0.02 J0.
G1 X83.084
G3 X83.064 Y10. I0. J-0.02
G1 Z-1.65
G3 X86.27 I1.603 J0.
X83.064 I-1.603 J0.
G0 Z5.
X84.667 Y27.99
G1 Z-0.15 F381.
Z0.35
G3 X84.687 Y27.97 I0.02 J0.
G1 X84.75
G3 X84.77 Y27.99 I0. J0.02
G1 Z-0.15
G3 X84.564 I-0.103 J0.
X84.77 I0.103 J0.
G1 Z5.
X84.667
Z-0.3
Z0.2
G3 X84.687 Y27.97 I0.02 J0.
G1 X84.75
G3 X84.77 Y27.99 I0. J0.02
G1 Z-0.3
G3 X84.564 I-0.103 J0.
X84.77 I0.103 J0.
G1 Z5.
X84.667
Z-0.45
Z0.05
G3 X84.687 Y27.97 I0.02 J0.
G1 X84.75
G3 X84.77 Y27.99 I0. J0.02
G1 Z-0.45
G3 X84.564 I-0.103 J0.
X84.77 I0.103 J0.
G1 Z5.
X84.667
Z-0.6
Z-0.1
G3 X84.687 Y27.97 I0.02 J0.
G1 X84.75
G3 X84.77 Y27.99 I0. J0.02
G1 Z-0.6
G3 X84.564 I-0.103 J0.
X84.77 I0.103 J0.
G1 Z5.
X84.667
Z-0.75
Z-0.25
G3 X84.687 Y27.97 I0.02 J0.
G1 X84.75
G3 X84.77 Y27.99 I0. J0.02
G1 Z-0.75
G3 X84.564 I-0.103 J0.
X84.77 I0.103 J0.
G1 Z5.
X84.667
Z-0.9
Z-0.4
G3 X84.687 Y27.97 I0.02 J0.
G1 X84.75
G3 X84.77 Y27.99 I0. J0.02
G1 Z-0.9
G3 X84.564 I-0.103 J0.
X84.77 I0.103 J0.
G1 Z5.
X84.667
Z-1.05
Z-0.55
G3 X84.687 Y27.97 I0.02 J0.
G1 X84.75
G3 X84.77 Y27.99 I0. J0.02
G1 Z-1.05
G3 X84.564 I-0.103 J0.
X84.77 I0.103 J0.
G1 Z5.
X84.667
Z-1.2
Z-0.7
G3 X84.687 Y27.97 I0.02 J0.
G1 X84.75
G3 X84.77 Y27.99 I0. J0.02
G1 Z-1.2
G3 X84.564 I-0.103 J0.
X84.77 I0.103 J0.
G1 Z5.
X84.667
Z-1.35
Z-0.85
G3 X84.687 Y27.97 I0.02 J0.
G1 X84.75
G3 X84.77 Y27.99 I0. J0.02
G1 Z-1.35
G3 X84.564 I-0.103 J0.
X84.77 I0.103 J0.
G1 Z5.
X84.667
Z-1.5
Z-1.
G3 X84.687 Y27.97 I0.02 J0.
G1 X84.75
G3 X84.77 Y27.99 I0. J0.02
G1 Z-1.5
G3 X84.564 I-0.103 J0.
X84.77 I0.103 J0.
G1 Z5.
X84.667
Z-1.65
Z-1.15
G3 X84.687 Y27.97 I0.02 J0.
G1 X84.75
G3 X84.77 Y27.99 I0. J0.02
G1 Z-1.65
G3 X84.564 I-0.103 J0.
X84.77 I0.103 J0.
G0 Z5.
X74.517
G1 Z-0.15 F381.
Z0.35
G3 X74.497 Y27.97 I0. J-0.02
G1 Y27.907
G3 X74.517 Y27.887 I0.02 J0.
G1 Z-0.15
G3 Y28.093 I0. J0.103
Y27.887 I0. J-0.103
G1 Z5.
Y27.99
Z-0.3
Z0.2
G3 X74.497 Y27.97 I0. J-0.02
G1 Y27.907
G3 X74.517 Y27.887 I0.02 J0.
G1 Z-0.3
G3 Y28.093 I0. J0.103
Y27.887 I0. J-0.103
G1 Z5.
Y27.99
Z-0.45
Z0.05
G3 X74.497 Y27.97 I0. J-0.02
G1 Y27.907
G3 X74.517 Y27.887 I0.02 J0.
G1 Z-0.45
G3 Y28.093 I0. J0.103
Y27.887 I0. J-0.103
G1 Z5.
Y27.99
Z-0.6
Z-0.1
G3 X74.497 Y27.97 I0. J-0.02
G1 Y27.907
G3 X74.517 Y27.887 I0.02 J0.
G1 Z-0.6
G3 Y28.093 I0. J0.103
Y27.887 I0. J-0.103
G1 Z5.
Y27.99
Z-0.75
Z-0.25
G3 X74.497 Y27.97 I0. J-0.02
G1 Y27.907
G3 X74.517 Y27.887 I0.02 J0.
G1 Z-0.75
G3 Y28.093 I0. J0.103
Y27.887 I0. J-0.103
G1 Z5.
Y27.99
Z-0.9
Z-0.4
G3 X74.497 Y27.97 I0. J-0.02
G1 Y27.907
G3 X74.517 Y27.887 I0.02 J0.
G1 Z-0.9
G3 Y28.093 I0. J0.103
Y27.887 I0. J-0.103
G1 Z5.
Y27.99
Z-1.05
Z-0.55
G3 X74.497 Y27.97 I0. J-0.02
G1 Y27.907
G3 X74.517 Y27.887 I0.02 J0.
G1 Z-1.05
G3 Y28.093 I0. J0.103
Y27.887 I0. J-0.103
G1 Z5.
Y27.99
Z-1.2
Z-0.7
G3 X74.497 Y27.97 I0. J-0.02
G1 Y27.907
G3 X74.517 Y27.887 I0.02 J0.
G1 Z-1.2
G3 Y28.093 I0. J0.103
Y27.887 I0. J-0.103
G1 Z5.
Y27.99
Z-1.35
Z-0.85
G3 X74.497 Y27.97 I0. J-0.02
G1 Y27.907
G3 X74.517 Y27.887 I0.02 J0.
G1 Z-1.35
G3 Y28.093 I0. J0.103
Y27.887 I0. J-0.103
G1 Z5.
Y27.99
Z-1.5
Z-1.
G3 X74.497 Y27.97 I0. J-0.02
G1 Y27.907
G3 X74.517 Y27.887 I0.02 J0.
G1 Z-1.5
G3 Y28.093 I0. J0.103
Y27.887 I0. J-0.103
G1 Z5.
Y27.99
Z-1.65
Z-1.15
G3 X74.497 Y27.97 I0. J-0.02
G1 Y27.907
G3 X74.517 Y27.887 I0.02 J0.
G1 Z-1.65
G3 Y28.093 I0. J0.103
Y27.887 I0. J-0.103
G0 Z5.
X117. Y50.84
G1 Z-0.15 F381.
Z0.35
G3 X117.02 Y50.86 I0. J0.02
G1 Y52.423
G3 X117. Y52.443 I-0.02 J0.
G1 Z-0.15
G3 Y49.237 I0. J-1.603
Y52.443 I0. J1.603
G1 Z5.
Y50.84
Z-0.3
Z0.2
G3 X117.02 Y50.86 I0. J0.02
G1 Y52.423
G3 X117. Y52.443 I-0.02 J0.
G1 Z-0.3
G3 Y49.237 I0. J-1.603
Y52.443 I0. J1.603
G1 Z5.
Y50.84
Z-0.45
Z0.05
G3 X117.02 Y50.86 I0. J0.02
G1 Y52.423
G3 X117. Y52.443 I-0.02 J0.
G1 Z-0.45
G3 Y49.237 I0. J-1.603
Y52.443 I0. J1.603
G1 Z5.
Y50.84
Z-0.6
Z-0.1
G3 X117.02 Y50.86 I0. J0.02
G1 Y52.423
G3 X117. Y52.443 I-0.02 J0.
G1 Z-0.6
G3 Y49.237 I0. J-1.603
Y52.443 I0. J1.603
G1 Z5.
Y50.84
Z-0.75
Z-0.25
G3 X117.02 Y50.86 I0. J0.02
G1 Y52.423
G3 X117. Y52.443 I-0.02 J0.
G1 Z-0.75
G3 Y49.237 I0. J-1.603
Y52.443 I0. J1.603
G1 Z5.
Y50.84
Z-0.9
Z-0.4
G3 X117.02 Y50.86 I0. J0.02
G1 Y52.423
G3 X117. Y52.443 I-0.02 J0.
G1 Z-0.9
G3 Y49.237 I0. J-1.603
Y52.443 I0. J1.603
G1 Z5.
Y50.84
Z-1.05
Z-0.55
G3 X117.02 Y50.86 I0. J0.02
G1 Y52.423
G3 X117. Y52.443 I-0.02 J0.
G1 Z-1.05
G3 Y49.237 I0. J-1.603
Y52.443 I0. J1.603
G1 Z5.
Y50.84
Z-1.2
Z-0.7
G3 X117.02 Y50.86 I0. J0.02
G1 Y52.423
G3 X117. Y52.443 I-0.02 J0.
G1 Z-1.2
G3 Y49.237 I0. J-1.603
Y52.443 I0. J1.603
G1 Z5.
Y50.84
Z-1.35
Z-0.85
G3 X117.02 Y50.86 I0. J0.02
G1 Y52.423
G3 X117. Y52.443 I-0.02 J0.
G1 Z-1.35
G3 Y49.237 I0. J-1.603
Y52.443 I0. J1.603
G1 Z5.
Y50.84
Z-1.5
Z-1.
G3 X117.02 Y50.86 I0. J0.02
G1 Y52.423
G3 X117. Y52.443 I-0.02 J0.
G1 Z-1.5
G3 Y49.237 I0. J-1.603
Y52.443 I0. J1.603
G1 Z5.
Y50.84
Z-1.65
Z-1.15
G3 X117.02 Y50.86 I0. J0.02
G1 Y52.423
G3 X117. Y52.443 I-0.02 J0.
G1 Z-1.65
G3 Y49.237 I0. J-1.603
Y52.443 I0. J1.603
G0 Z5.
X122. Y96.68
G1 Z-0.15 F381.
Z0.35
G3 X122.02 Y96.7 I0. J0.02
G1 Y97.763
G3 X122. Y97.783 I-0.02 J0.
G1 Z-0.15
G3 Y95.577 I0. J-1.103
Y97.783 I0. J1.103
G1 Z5.
Y96.68
Z-0.3
Z0.2
G3 X122.02 Y96.7 I0. J0.02
G1 Y97.763
G3 X122. Y97.783 I-0.02 J0.
G1 Z-0.3
G3 Y95.577 I0. J-1.103
Y97.783 I0. J1.103
G1 Z5.
Y96.68
Z-0.45
Z0.05
G3 X122.02 Y96.7 I0. J0.02
G1 Y97.763
G3 X122. Y97.783 I-0.02 J0.
G1 Z-0.45
G3 Y95.577 I0. J-1.103
Y97.783 I0. J1.103
G1 Z5.
Y96.68
Z-0.6
Z-0.1
G3 X122.02 Y96.7 I0. J0.02
G1 Y97.763
G3 X122. Y97.783 I-0.02 J0.
G1 Z-0.6
G3 Y95.577 I0. J-1.103
Y97.783 I0. J1.103
G1 Z5.
Y96.68
Z-0.75
Z-0.25
G3 X122.02 Y96.7 I0. J0.02
G1 Y97.763
G3 X122. Y97.783 I-0.02 J0.
G1 Z-0.75
G3 Y95.577 I0. J-1.103
Y97.783 I0. J1.103
G1 Z5.
Y96.68
Z-0.9
Z-0.4
G3 X122.02 Y96.7 I0. J0.02
G1 Y97.763
G3 X122. Y97.783 I-0.02 J0.
G1 Z-0.9
G3 Y95.577 I0. J-1.103
Y97.783 I0. J1.103
G1 Z5.
Y96.68
Z-1.05
Z-0.55
G3 X122.02 Y96.7 I0. J0.02
G1 Y97.763
G3 X122. Y97.783 I-0.02 J0.
G1 Z-1.05
G3 Y95.577 I0. J-1.103
Y97.783 I0. J1.103
G1 Z5.
Y96.68
Z-1.2
Z-0.7
G3 X122.02 Y96.7 I0. J0.02
G1 Y97.763
G3 X122. Y97.783 I-0.02 J0.
G1 Z-1.2
G3 Y95.577 I0. J-1.103
Y97.783 I0. J1.103
G1 Z5.
Y96.68
Z-1.35
Z-0.85
G3 X122.02 Y96.7 I0. J0.02
G1 Y97.763
G3 X122. Y97.783 I-0.02 J0.
G1 Z-1.35
G3 Y95.577 I0. J-1.103
Y97.783 I0. J1.103
G1 Z5.
Y96.68
Z-1.5
Z-1.
G3 X122.02 Y96.7 I0. J0.02
G1 Y97.763
G3 X122. Y97.783 I-0.02 J0.
G1 Z-1.5
G3 Y95.577 I0. J-1.103
Y97.783 I0. J1.103
G1 Z5.
Y96.68
Z-1.65
Z-1.15
G3 X122.02 Y96.7 I0. J0.02
G1 Y97.763
G3 X122. Y97.783 I-0.02 J0.
G1 Z-1.65
G3 Y95.577 I0. J-1.103
Y97.783 I0. J1.103
G0 Z5.
Y5.
G1 Z-0.15 F381.
Z0.35
G3 X121.98 Y5.02 I-0.02 J0.
G1 X120.917
G3 X120.897 Y5. I0. J-0.02
G1 Z-0.15
G3 X123.103 I1.103 J0.
X120.897 I-1.103 J0.
G1 Z5.
X122.
Z-0.3
Z0.2
G3 X121.98 Y5.02 I-0.02 J0.
G1 X120.917
G3 X120.897 Y5. I0. J-0.02
G1 Z-0.3
G3 X123.103 I1.103 J0.
X120.897 I-1.103 J0.
G1 Z5.
X122.
Z-0.45
Z0.05
G3 X121.98 Y5.02 I-0.02 J0.
G1 X120.917
G3 X120.897 Y5. I0. J-0.02
G1 Z-0.45
G3 X123.103 I1.103 J0.
X120.897 I-1.103 J0.
G1 Z5.
X122.
Z-0.6
Z-0.1
G3 X121.98 Y5.02 I-0.02 J0.
G1 X120.917
G3 X120.897 Y5. I0. J-0.02
G1 Z-0.6
G3 X123.103 I1.103 J0.
X120.897 I-1.103 J0.
G1 Z5.
X122.
Z-0.75
Z-0.25
G3 X121.98 Y5.02 I-0.02 J0.
G1 X120.917
G3 X120.897 Y5. I0. J-0.02
G1 Z-0.75
G3 X123.103 I1.103 J0.
X120.897 I-1.103 J0.
G1 Z5.
X122.
Z-0.9
Z-0.4
G3 X121.98 Y5.02 I-0.02 J0.
G1 X120.917
G3 X120.897 Y5. I0. J-0.02
G1 Z-0.9
G3 X123.103 I1.103 J0.
X120.897 I-1.103 J0.
G1 Z5.
X122.
Z-1.05
Z-0.55
G3 X121.98 Y5.02 I-0.02 J0.
G1 X120.917
G3 X120.897 Y5. I0. J-0.02
G1 Z-1.05
G3 X123.103 I1.103 J0.
X120.897 I-1.103 J0.
G1 Z5.
X122.
Z-1.2
Z-0.7
G3 X121.98 Y5.02 I-0.02 J0.
G1 X120.917
G3 X120.897 Y5. I0. J-0.02
G1 Z-1.2
G3 X123.103 I1.103 J0.
X120.897 I-1.103 J0.
G1 Z5.
X122.
Z-1.35
Z-0.85
G3 X121.98 Y5.02 I-0.02 J0.
G1 X120.917
G3 X120.897 Y5. I0. J-0.02
G1 Z-1.35
G3 X123.103 I1.103 J0.
X120.897 I-1.103 J0.
G1 Z5.
X122.
Z-1.5
Z-1.
G3 X121.98 Y5.02 I-0.02 J0.
G1 X120.917
G3 X120.897 Y5. I0. J-0.02
G1 Z-1.5
G3 X123.103 I1.103 J0.
X120.897 I-1.103 J0.
G1 Z5.
X122.
Z-1.65
Z-1.15
G3 X121.98 Y5.02 I-0.02 J0.
G1 X120.917
G3 X120.897 Y5. I0. J-0.02
G1 Z-1.65
G3 X123.103 I1.103 J0.
X120.897 I-1.103 J0.
G0 Z15.

M9
G53 Z0.
M30
