(1)
(T1  D=0.794 CR=0. - ZMIN=-1.65 - FLAT END MILL)
G0 G90 G94 G17
G21
G53 Z0.

(2D POCKET3)
M5
M9
T1
S16500 M3
G4 P4.
G55
M9
G0 X52.507 Y73.611
Z15.
Z5.
G1 Z2.5 F51.
Z-0.071
G19 G3 Y73.69 Z-0.15 J0.079 K0.
G17 G3 X52.46 I-0.024 J0. F381.
X52.586 I0.063 J0.
X52.38 I-0.103 J0.
X52.586 I0.103 J0.
X52.552 Y73.704 I-0.02 J0.
G1 X52.473 Y73.625
G3 X52.501 Y73.596 I0.014 J-0.014
X52.507 Y73.611 I-0.014 J0.014
G1 Z-0.221 F51.
G19 G3 Y73.69 Z-0.3 J0.079 K0.
G17 G3 X52.46 I-0.024 J0. F381.
X52.586 I0.063 J0.
X52.38 I-0.103 J0.
X52.586 I0.103 J0.
X52.552 Y73.704 I-0.02 J0.
G1 X52.473 Y73.625
G3 X52.501 Y73.596 I0.014 J-0.014
X52.507 Y73.611 I-0.014 J0.014
G1 Z-0.371 F51.
G19 G3 Y73.69 Z-0.45 J0.079 K0.
G17 G3 X52.46 I-0.024 J0. F381.
X52.586 I0.063 J0.
X52.38 I-0.103 J0.
X52.586 I0.103 J0.
X52.552 Y73.704 I-0.02 J0.
G1 X52.473 Y73.625
G3 X52.501 Y73.596 I0.014 J-0.014
X52.507 Y73.611 I-0.014 J0.014
G1 Z-0.521 F51.
G19 G3 Y73.69 Z-0.6 J0.079 K0.
G17 G3 X52.46 I-0.024 J0. F381.
X52.586 I0.063 J0.
X52.38 I-0.103 J0.
X52.586 I0.103 J0.
X52.552 Y73.704 I-0.02 J0.
G1 X52.473 Y73.625
G3 X52.501 Y73.596 I0.014 J-0.014
X52.507 Y73.611 I-0.014 J0.014
G1 Z-0.671 F51.
G19 G3 Y73.69 Z-0.75 J0.079 K0.
G17 G3 X52.46 I-0.024 J0. F381.
X52.586 I0.063 J0.
X52.38 I-0.103 J0.
X52.586 I0.103 J0.
X52.552 Y73.704 I-0.02 J0.
G1 X52.473 Y73.625
G3 X52.501 Y73.596 I0.014 J-0.014
X52.507 Y73.611 I-0.014 J0.014
G1 Z-0.821 F51.
G19 G3 Y73.69 Z-0.9 J0.079 K0.
G17 G3 X52.46 I-0.024 J0. F381.
X52.586 I0.063 J0.
X52.38 I-0.103 J0.
X52.586 I0.103 J0.
X52.552 Y73.704 I-0.02 J0.
G1 X52.473 Y73.625
G3 X52.501 Y73.596 I0.014 J-0.014
X52.507 Y73.611 I-0.014 J0.014
G1 Z-0.971 F51.
G19 G3 Y73.69 Z-1.05 J0.079 K0.
G17 G3 X52.46 I-0.024 J0. F381.
X52.586 I0.063 J0.
X52.38 I-0.103 J0.
X52.586 I0.103 J0.
X52.552 Y73.704 I-0.02 J0.
G1 X52.473 Y73.625
G3 X52.501 Y73.596 I0.014 J-0.014
X52.507 Y73.611 I-0.014 J0.014
G1 Z-1.121 F51.
G19 G3 Y73.69 Z-1.2 J0.079 K0.
G17 G3 X52.46 I-0.024 J0. F381.
X52.586 I0.063 J0.
X52.38 I-0.103 J0.
X52.586 I0.103 J0.
X52.552 Y73.704 I-0.02 J0.
G1 X52.473 Y73.625
G3 X52.501 Y73.596 I0.014 J-0.014
X52.507 Y73.611 I-0.014 J0.014
G1 Z-1.271 F51.
G19 G3 Y73.69 Z-1.35 J0.079 K0.
G17 G3 X52.46 I-0.024 J0. F381.
X52.586 I0.063 J0.
X52.38 I-0.103 J0.
X52.586 I0.103 J0.
X52.552 Y73.704 I-0.02 J0.
G1 X52.473 Y73.625
G3 X52.501 Y73.596 I0.014 J-0.014
X52.507 Y73.611 I-0.014 J0.014
G1 Z-1.421 F51.
G19 G3 Y73.69 Z-1.5 J0.079 K0.
G17 G3 X52.46 I-0.024 J0. F381.
X52.586 I0.063 J0.
X52.38 I-0.103 J0.
X52.586 I0.103 J0.
G1 X52.583 Y73.697
X52.566 Y73.709
X52.563 Y73.714
Z-1.65 F51.
G3 X52.483 Y73.793 I-0.079 J0. F381.
Y73.587 I0. J-0.103
Y73.793 I0. J0.103
G1 Y73.69 Z-1.64
G0 Z5.
X32.207 Y73.611
G1 Z2.5 F51.
Z-0.071
G19 G3 Y73.69 Z-0.15 J0.079 K0.
G17 G3 X32.16 I-0.024 J0. F381.
X32.286 I0.063 J0.
X32.08 I-0.103 J0.
X32.286 I0.103 J0.
X32.252 Y73.704 I-0.02 J0.
G1 X32.173 Y73.625
G3 X32.201 Y73.596 I0.014 J-0.014
X32.207 Y73.611 I-0.014 J0.014
G1 Z-0.221 F51.
G19 G3 Y73.69 Z-0.3 J0.079 K0.
G17 G3 X32.16 I-0.024 J0. F381.
X32.286 I0.063 J0.
X32.08 I-0.103 J0.
X32.286 I0.103 J0.
X32.252 Y73.704 I-0.02 J0.
G1 X32.173 Y73.625
G3 X32.201 Y73.596 I0.014 J-0.014
X32.207 Y73.611 I-0.014 J0.014
G1 Z-0.371 F51.
G19 G3 Y73.69 Z-0.45 J0.079 K0.
G17 G3 X32.16 I-0.024 J0. F381.
X32.286 I0.063 J0.
X32.08 I-0.103 J0.
X32.286 I0.103 J0.
X32.252 Y73.704 I-0.02 J0.
G1 X32.173 Y73.625
G3 X32.201 Y73.596 I0.014 J-0.014
X32.207 Y73.611 I-0.014 J0.014
G1 Z-0.521 F51.
G19 G3 Y73.69 Z-0.6 J0.079 K0.
G17 G3 X32.16 I-0.024 J0. F381.
X32.286 I0.063 J0.
X32.08 I-0.103 J0.
X32.286 I0.103 J0.
X32.252 Y73.704 I-0.02 J0.
G1 X32.173 Y73.625
G3 X32.201 Y73.596 I0.014 J-0.014
X32.207 Y73.611 I-0.014 J0.014
G1 Z-0.671 F51.
G19 G3 Y73.69 Z-0.75 J0.079 K0.
G17 G3 X32.16 I-0.024 J0. F381.
X32.286 I0.063 J0.
X32.08 I-0.103 J0.
X32.286 I0.103 J0.
X32.252 Y73.704 I-0.02 J0.
G1 X32.173 Y73.625
G3 X32.201 Y73.596 I0.014 J-0.014
X32.207 Y73.611 I-0.014 J0.014
G1 Z-0.821 F51.
G19 G3 Y73.69 Z-0.9 J0.079 K0.
G17 G3 X32.16 I-0.024 J0. F381.
X32.286 I0.063 J0.
X32.08 I-0.103 J0.
X32.286 I0.103 J0.
X32.252 Y73.704 I-0.02 J0.
G1 X32.173 Y73.625
G3 X32.201 Y73.596 I0.014 J-0.014
X32.207 Y73.611 I-0.014 J0.014
G1 Z-0.971 F51.
G19 G3 Y73.69 Z-1.05 J0.079 K0.
G17 G3 X32.16 I-0.024 J0. F381.
X32.286 I0.063 J0.
X32.08 I-0.103 J0.
X32.286 I0.103 J0.
X32.252 Y73.704 I-0.02 J0.
G1 X32.173 Y73.625
G3 X32.201 Y73.596 I0.014 J-0.014
X32.207 Y73.611 I-0.014 J0.014
G1 Z-1.121 F51.
G19 G3 Y73.69 Z-1.2 J0.079 K0.
G17 G3 X32.16 I-0.024 J0. F381.
X32.286 I0.063 J0.
X32.08 I-0.103 J0.
X32.286 I0.103 J0.
X32.252 Y73.704 I-0.02 J0.
G1 X32.173 Y73.625
G3 X32.201 Y73.596 I0.014 J-0.014
X32.207 Y73.611 I-0.014 J0.014
G1 Z-1.271 F51.
G19 G3 Y73.69 Z-1.35 J0.079 K0.
G17 G3 X32.16 I-0.024 J0. F381.
X32.286 I0.063 J0.
X32.08 I-0.103 J0.
X32.286 I0.103 J0.
X32.252 Y73.704 I-0.02 J0.
G1 X32.173 Y73.625
G3 X32.201 Y73.596 I0.014 J-0.014
X32.207 Y73.611 I-0.014 J0.014
G1 Z-1.421 F51.
G19 G3 Y73.69 Z-1.5 J0.079 K0.
G17 G3 X32.16 I-0.024 J0. F381.
X32.286 I0.063 J0.
X32.08 I-0.103 J0.
X32.286 I0.103 J0.
G1 X32.283 Y73.697
X32.266 Y73.709
X32.263 Y73.714
Z-1.65 F51.
G3 X32.183 Y73.793 I-0.079 J0. F381.
Y73.587 I0. J-0.103
Y73.793 I0. J0.103
G1 Y73.69 Z-1.64
G0 Z5.
X32.199 Y91.601
G1 Z2.5 F51.
Z-0.071
G19 G3 Y91.68 Z-0.15 J0.079 K0.
G17 G3 X32.168 I-0.016 J0. F381.
X32.953 I0.393 J0.
X31.414 I-0.77 J0.
X33.707 I1.147 J0.
X30.66 I-1.524 J0.
X33.786 I1.563 J0.
X30.58 I-1.603 J0.
X33.786 I1.603 J0.
X33.765 Y91.7 I-0.02 J0.
G1 X32.22 Y91.581
G2 X32.199 Y91.601 I-0.002 J0.02
G1 Z-0.221 F51.
G19 G3 Y91.68 Z-0.3 J0.079 K0.
G17 G3 X32.168 I-0.016 J0. F381.
X32.953 I0.393 J0.
X31.414 I-0.77 J0.
X33.707 I1.147 J0.
X30.66 I-1.524 J0.
X33.786 I1.563 J0.
X30.58 I-1.603 J0.
X33.786 I1.603 J0.
X33.765 Y91.7 I-0.02 J0.
G1 X32.22 Y91.581
G2 X32.199 Y91.601 I-0.002 J0.02
G1 Z-0.371 F51.
G19 G3 Y91.68 Z-0.45 J0.079 K0.
G17 G3 X32.168 I-0.016 J0. F381.
X32.953 I0.393 J0.
X31.414 I-0.77 J0.
X33.707 I1.147 J0.
X30.66 I-1.524 J0.
X33.786 I1.563 J0.
X30.58 I-1.603 J0.
X33.786 I1.603 J0.
X33.765 Y91.7 I-0.02 J0.
G1 X32.22 Y91.581
G2 X32.199 Y91.601 I-0.002 J0.02
G1 Z-0.521 F51.
G19 G3 Y91.68 Z-0.6 J0.079 K0.
G17 G3 X32.168 I-0.016 J0. F381.
X32.953 I0.393 J0.
X31.414 I-0.77 J0.
X33.707 I1.147 J0.
X30.66 I-1.524 J0.
X33.786 I1.563 J0.
X30.58 I-1.603 J0.
X33.786 I1.603 J0.
X33.765 Y91.7 I-0.02 J0.
G1 X32.22 Y91.581
G2 X32.199 Y91.601 I-0.002 J0.02
G1 Z-0.671 F51.
G19 G3 Y91.68 Z-0.75 J0.079 K0.
G17 G3 X32.168 I-0.016 J0. F381.
X32.953 I0.393 J0.
X31.414 I-0.77 J0.
X33.707 I1.147 J0.
X30.66 I-1.524 J0.
X33.786 I1.563 J0.
X30.58 I-1.603 J0.
X33.786 I1.603 J0.
X33.765 Y91.7 I-0.02 J0.
G1 X32.22 Y91.581
G2 X32.199 Y91.601 I-0.002 J0.02
G1 Z-0.821 F51.
G19 G3 Y91.68 Z-0.9 J0.079 K0.
G17 G3 X32.168 I-0.016 J0. F381.
X32.953 I0.393 J0.
X31.414 I-0.77 J0.
X33.707 I1.147 J0.
X30.66 I-1.524 J0.
X33.786 I1.563 J0.
X30.58 I-1.603 J0.
X33.786 I1.603 J0.
X33.765 Y91.7 I-0.02 J0.
G1 X32.22 Y91.581
G2 X32.199 Y91.601 I-0.002 J0.02
G1 Z-0.971 F51.
G19 G3 Y91.68 Z-1.05 J0.079 K0.
G17 G3 X32.168 I-0.016 J0. F381.
X32.953 I0.393 J0.
X31.414 I-0.77 J0.
X33.707 I1.147 J0.
X30.66 I-1.524 J0.
X33.786 I1.563 J0.
X30.58 I-1.603 J0.
X33.786 I1.603 J0.
X33.765 Y91.7 I-0.02 J0.
G1 X32.22 Y91.581
G2 X32.199 Y91.601 I-0.002 J0.02
G1 Z-1.121 F51.
G19 G3 Y91.68 Z-1.2 J0.079 K0.
G17 G3 X32.168 I-0.016 J0. F381.
X32.953 I0.393 J0.
X31.414 I-0.77 J0.
X33.707 I1.147 J0.
X30.66 I-1.524 J0.
X33.786 I1.563 J0.
X30.58 I-1.603 J0.
X33.786 I1.603 J0.
X33.765 Y91.7 I-0.02 J0.
G1 X32.22 Y91.581
G2 X32.199 Y91.601 I-0.002 J0.02
G1 Z-1.271 F51.
G19 G3 Y91.68 Z-1.35 J0.079 K0.
G17 G3 X32.168 I-0.016 J0. F381.
X32.953 I0.393 J0.
X31.414 I-0.77 J0.
X33.707 I1.147 J0.
X30.66 I-1.524 J0.
X33.786 I1.563 J0.
X30.58 I-1.603 J0.
X33.786 I1.603 J0.
X33.765 Y91.7 I-0.02 J0.
G1 X32.22 Y91.581
G2 X32.199 Y91.601 I-0.002 J0.02
G1 Z-1.421 F51.
G19 G3 Y91.68 Z-1.5 J0.079 K0.
G17 G3 X32.168 I-0.016 J0. F381.
X32.953 I0.393 J0.
X31.414 I-0.77 J0.
X33.707 I1.147 J0.
X30.66 I-1.524 J0.
X33.786 I1.563 J0.
X30.58 I-1.603 J0.
X33.786 I1.603 J0.
X33.767 Y91.7 I-0.02 J0.
G1 X30.68 Y91.778
G3 X30.66 Y91.759 I-0.001 J-0.02
G1 Z-1.65 F51.
G3 X30.58 Y91.68 I0. J-0.079 F381.
X33.786 I1.603 J0.
X30.58 I-1.603 J0.
G1 X30.731 Z-1.635
G0 Z5.
X5.27 Y96.601
G1 Z2.5 F51.
Z-0.071
G19 G3 Y96.68 Z-0.15 J0.079 K0.
G17 G3 X4.73 I-0.27 J0. F381.
X6.024 I0.647 J0.
X3.976 I-1.024 J0.
X6.103 I1.063 J0.
X3.897 I-1.103 J0.
X6.103 I1.103 J0.
X6.08 Y96.7 I-0.02 J0.
G1 X5.293 Y96.581
G2 X5.27 Y96.601 I-0.003 J0.02
G1 Z-0.221 F51.
G19 G3 Y96.68 Z-0.3 J0.079 K0.
G17 G3 X4.73 I-0.27 J0. F381.
X6.024 I0.647 J0.
X3.976 I-1.024 J0.
X6.103 I1.063 J0.
X3.897 I-1.103 J0.
X6.103 I1.103 J0.
X6.08 Y96.7 I-0.02 J0.
G1 X5.293 Y96.581
G2 X5.27 Y96.601 I-0.003 J0.02
G1 Z-0.371 F51.
G19 G3 Y96.68 Z-0.45 J0.079 K0.
G17 G3 X4.73 I-0.27 J0. F381.
X6.024 I0.647 J0.
X3.976 I-1.024 J0.
X6.103 I1.063 J0.
X3.897 I-1.103 J0.
X6.103 I1.103 J0.
X6.08 Y96.7 I-0.02 J0.
G1 X5.293 Y96.581
G2 X5.27 Y96.601 I-0.003 J0.02
G1 Z-0.521 F51.
G19 G3 Y96.68 Z-0.6 J0.079 K0.
G17 G3 X4.73 I-0.27 J0. F381.
X6.024 I0.647 J0.
X3.976 I-1.024 J0.
X6.103 I1.063 J0.
X3.897 I-1.103 J0.
X6.103 I1.103 J0.
X6.08 Y96.7 I-0.02 J0.
G1 X5.293 Y96.581
G2 X5.27 Y96.601 I-0.003 J0.02
G1 Z-0.671 F51.
G19 G3 Y96.68 Z-0.75 J0.079 K0.
G17 G3 X4.73 I-0.27 J0. F381.
X6.024 I0.647 J0.
X3.976 I-1.024 J0.
X6.103 I1.063 J0.
X3.897 I-1.103 J0.
X6.103 I1.103 J0.
X6.08 Y96.7 I-0.02 J0.
G1 X5.293 Y96.581
G2 X5.27 Y96.601 I-0.003 J0.02
G1 Z-0.821 F51.
G19 G3 Y96.68 Z-0.9 J0.079 K0.
G17 G3 X4.73 I-0.27 J0. F381.
X6.024 I0.647 J0.
X3.976 I-1.024 J0.
X6.103 I1.063 J0.
X3.897 I-1.103 J0.
X6.103 I1.103 J0.
X6.08 Y96.7 I-0.02 J0.
G1 X5.293 Y96.581
G2 X5.27 Y96.601 I-0.003 J0.02
G1 Z-0.971 F51.
G19 G3 Y96.68 Z-1.05 J0.079 K0.
G17 G3 X4.73 I-0.27 J0. F381.
X6.024 I0.647 J0.
X3.976 I-1.024 J0.
X6.103 I1.063 J0.
X3.897 I-1.103 J0.
X6.103 I1.103 J0.
X6.08 Y96.7 I-0.02 J0.
G1 X5.293 Y96.581
G2 X5.27 Y96.601 I-0.003 J0.02
G1 Z-1.121 F51.
G19 G3 Y96.68 Z-1.2 J0.079 K0.
G17 G3 X4.73 I-0.27 J0. F381.
X6.024 I0.647 J0.
X3.976 I-1.024 J0.
X6.103 I1.063 J0.
X3.897 I-1.103 J0.
X6.103 I1.103 J0.
X6.08 Y96.7 I-0.02 J0.
G1 X5.293 Y96.581
G2 X5.27 Y96.601 I-0.003 J0.02
G1 Z-1.271 F51.
G19 G3 Y96.68 Z-1.35 J0.079 K0.
G17 G3 X4.73 I-0.27 J0. F381.
X6.024 I0.647 J0.
X3.976 I-1.024 J0.
X6.103 I1.063 J0.
X3.897 I-1.103 J0.
X6.103 I1.103 J0.
X6.08 Y96.7 I-0.02 J0.
G1 X5.293 Y96.581
G2 X5.27 Y96.601 I-0.003 J0.02
G1 Z-1.421 F51.
G19 G3 Y96.68 Z-1.5 J0.079 K0.
G17 G3 X4.73 I-0.27 J0. F381.
X6.024 I0.647 J0.
X3.976 I-1.024 J0.
X6.103 I1.063 J0.
X3.897 I-1.103 J0.
X6.103 I1.103 J0.
X6.097 Y96.694 I-0.02 J0.
G1 X5.092 Y97.698
G3 X5.079 Y97.704 I-0.014 J-0.014
G1 Z-1.65 F51.
G3 X5. Y97.783 I-0.079 J0. F381.
Y95.577 I0. J-1.103
Y97.783 I0. J1.103
G1 Y97.632 Z-1.635
G0 Z5.
X10.016 Y50.761
G1 Z2.5 F51.
Z-0.071
G19 G3 Y50.84 Z-0.15 J0.079 K0.
G17 G3 X9.984 I-0.016 J0. F381.
X10.77 I0.393 J0.
X9.23 I-0.77 J0.
X11.524 I1.147 J0.
X8.476 I-1.524 J0.
X11.603 I1.563 J0.
X8.397 I-1.603 J0.
X11.603 I1.603 J0.
X11.582 Y50.86 I-0.02 J0.
G1 X10.037 Y50.741
G2 X10.016 Y50.761 I-0.002 J0.02
G1 Z-0.221 F51.
G19 G3 Y50.84 Z-0.3 J0.079 K0.
G17 G3 X9.984 I-0.016 J0. F381.
X10.77 I0.393 J0.
X9.23 I-0.77 J0.
X11.524 I1.147 J0.
X8.476 I-1.524 J0.
X11.603 I1.563 J0.
X8.397 I-1.603 J0.
X11.603 I1.603 J0.
X11.582 Y50.86 I-0.02 J0.
G1 X10.037 Y50.741
G2 X10.016 Y50.761 I-0.002 J0.02
G1 Z-0.371 F51.
G19 G3 Y50.84 Z-0.45 J0.079 K0.
G17 G3 X9.984 I-0.016 J0. F381.
X10.77 I0.393 J0.
X9.23 I-0.77 J0.
X11.524 I1.147 J0.
X8.476 I-1.524 J0.
X11.603 I1.563 J0.
X8.397 I-1.603 J0.
X11.603 I1.603 J0.
X11.582 Y50.86 I-0.02 J0.
G1 X10.037 Y50.741
G2 X10.016 Y50.761 I-0.002 J0.02
G1 Z-0.521 F51.
G19 G3 Y50.84 Z-0.6 J0.079 K0.
G17 G3 X9.984 I-0.016 J0. F381.
X10.77 I0.393 J0.
X9.23 I-0.77 J0.
X11.524 I1.147 J0.
X8.476 I-1.524 J0.
X11.603 I1.563 J0.
X8.397 I-1.603 J0.
X11.603 I1.603 J0.
X11.582 Y50.86 I-0.02 J0.
G1 X10.037 Y50.741
G2 X10.016 Y50.761 I-0.002 J0.02
G1 Z-0.671 F51.
G19 G3 Y50.84 Z-0.75 J0.079 K0.
G17 G3 X9.984 I-0.016 J0. F381.
X10.77 I0.393 J0.
X9.23 I-0.77 J0.
X11.524 I1.147 J0.
X8.476 I-1.524 J0.
X11.603 I1.563 J0.
X8.397 I-1.603 J0.
X11.603 I1.603 J0.
X11.582 Y50.86 I-0.02 J0.
G1 X10.037 Y50.741
G2 X10.016 Y50.761 I-0.002 J0.02
G1 Z-0.821 F51.
G19 G3 Y50.84 Z-0.9 J0.079 K0.
G17 G3 X9.984 I-0.016 J0. F381.
X10.77 I0.393 J0.
X9.23 I-0.77 J0.
X11.524 I1.147 J0.
X8.476 I-1.524 J0.
X11.603 I1.563 J0.
X8.397 I-1.603 J0.
X11.603 I1.603 J0.
X11.582 Y50.86 I-0.02 J0.
G1 X10.037 Y50.741
G2 X10.016 Y50.761 I-0.002 J0.02
G1 Z-0.971 F51.
G19 G3 Y50.84 Z-1.05 J0.079 K0.
G17 G3 X9.984 I-0.016 J0. F381.
X10.77 I0.393 J0.
X9.23 I-0.77 J0.
X11.524 I1.147 J0.
X8.476 I-1.524 J0.
X11.603 I1.563 J0.
X8.397 I-1.603 J0.
X11.603 I1.603 J0.
X11.582 Y50.86 I-0.02 J0.
G1 X10.037 Y50.741
G2 X10.016 Y50.761 I-0.002 J0.02
G1 Z-1.121 F51.
G19 G3 Y50.84 Z-1.2 J0.079 K0.
G17 G3 X9.984 I-0.016 J0. F381.
X10.77 I0.393 J0.
X9.23 I-0.77 J0.
X11.524 I1.147 J0.
X8.476 I-1.524 J0.
X11.603 I1.563 J0.
X8.397 I-1.603 J0.
X11.603 I1.603 J0.
X11.582 Y50.86 I-0.02 J0.
G1 X10.037 Y50.741
G2 X10.016 Y50.761 I-0.002 J0.02
G1 Z-1.271 F51.
G19 G3 Y50.84 Z-1.35 J0.079 K0.
G17 G3 X9.984 I-0.016 J0. F381.
X10.77 I0.393 J0.
X9.23 I-0.77 J0.
X11.524 I1.147 J0.
X8.476 I-1.524 J0.
X11.603 I1.563 J0.
X8.397 I-1.603 J0.
X11.603 I1.603 J0.
X11.582 Y50.86 I-0.02 J0.
G1 X10.037 Y50.741
G2 X10.016 Y50.761 I-0.002 J0.02
G1 Z-1.421 F51.
G19 G3 Y50.84 Z-1.5 J0.079 K0.
G17 G3 X9.984 I-0.016 J0. F381.
X10.77 I0.393 J0.
X9.23 I-0.77 J0.
X11.524 I1.147 J0.
X8.476 I-1.524 J0.
X11.603 I1.563 J0.
X8.397 I-1.603 J0.
X11.603 I1.603 J0.
X11.597 Y50.854 I-0.02 J0.
G1 X10.092 Y52.358
G3 X10.079 Y52.364 I-0.014 J-0.014
G1 Z-1.65 F51.
G3 X10. Y52.443 I-0.079 J0. F381.
Y49.237 I0. J-1.603
Y52.443 I0. J1.603
G1 Y52.292 Z-1.635
G0 Z5.
X32.207 Y27.911
G1 Z2.5 F51.
Z-0.071
G19 G3 Y27.99 Z-0.15 J0.079 K0.
G17 G3 X32.16 I-0.024 J0. F381.
X32.286 I0.063 J0.
X32.08 I-0.103 J0.
X32.286 I0.103 J0.
X32.252 Y28.004 I-0.02 J0.
G1 X32.173 Y27.925
G3 X32.201 Y27.896 I0.014 J-0.014
X32.207 Y27.911 I-0.014 J0.014
G1 Z-0.221 F51.
G19 G3 Y27.99 Z-0.3 J0.079 K0.
G17 G3 X32.16 I-0.024 J0. F381.
X32.286 I0.063 J0.
X32.08 I-0.103 J0.
X32.286 I0.103 J0.
X32.252 Y28.004 I-0.02 J0.
G1 X32.173 Y27.925
G3 X32.201 Y27.896 I0.014 J-0.014
X32.207 Y27.911 I-0.014 J0.014
G1 Z-0.371 F51.
G19 G3 Y27.99 Z-0.45 J0.079 K0.
G17 G3 X32.16 I-0.024 J0. F381.
X32.286 I0.063 J0.
X32.08 I-0.103 J0.
X32.286 I0.103 J0.
X32.252 Y28.004 I-0.02 J0.
G1 X32.173 Y27.925
G3 X32.201 Y27.896 I0.014 J-0.014
X32.207 Y27.911 I-0.014 J0.014
G1 Z-0.521 F51.
G19 G3 Y27.99 Z-0.6 J0.079 K0.
G17 G3 X32.16 I-0.024 J0. F381.
X32.286 I0.063 J0.
X32.08 I-0.103 J0.
X32.286 I0.103 J0.
X32.252 Y28.004 I-0.02 J0.
G1 X32.173 Y27.925
G3 X32.201 Y27.896 I0.014 J-0.014
X32.207 Y27.911 I-0.014 J0.014
G1 Z-0.671 F51.
G19 G3 Y27.99 Z-0.75 J0.079 K0.
G17 G3 X32.16 I-0.024 J0. F381.
X32.286 I0.063 J0.
X32.08 I-0.103 J0.
X32.286 I0.103 J0.
X32.252 Y28.004 I-0.02 J0.
G1 X32.173 Y27.925
G3 X32.201 Y27.896 I0.014 J-0.014
X32.207 Y27.911 I-0.014 J0.014
G1 Z-0.821 F51.
G19 G3 Y27.99 Z-0.9 J0.079 K0.
G17 G3 X32.16 I-0.024 J0. F381.
X32.286 I0.063 J0.
X32.08 I-0.103 J0.
X32.286 I0.103 J0.
X32.252 Y28.004 I-0.02 J0.
G1 X32.173 Y27.925
G3 X32.201 Y27.896 I0.014 J-0.014
X32.207 Y27.911 I-0.014 J0.014
G1 Z-0.971 F51.
G19 G3 Y27.99 Z-1.05 J0.079 K0.
G17 G3 X32.16 I-0.024 J0. F381.
X32.286 I0.063 J0.
X32.08 I-0.103 J0.
X32.286 I0.103 J0.
X32.252 Y28.004 I-0.02 J0.
G1 X32.173 Y27.925
G3 X32.201 Y27.896 I0.014 J-0.014
X32.207 Y27.911 I-0.014 J0.014
G1 Z-1.121 F51.
G19 G3 Y27.99 Z-1.2 J0.079 K0.
G17 G3 X32.16 I-0.024 J0. F381.
X32.286 I0.063 J0.
X32.08 I-0.103 J0.
X32.286 I0.103 J0.
X32.252 Y28.004 I-0.02 J0.
G1 X32.173 Y27.925
G3 X32.201 Y27.896 I0.014 J-0.014
X32.207 Y27.911 I-0.014 J0.014
G1 Z-1.271 F51.
G19 G3 Y27.99 Z-1.35 J0.079 K0.
G17 G3 X32.16 I-0.024 J0. F381.
X32.286 I0.063 J0.
X32.08 I-0.103 J0.
X32.286 I0.103 J0.
X32.252 Y28.004 I-0.02 J0.
G1 X32.173 Y27.925
G3 X32.201 Y27.896 I0.014 J-0.014
X32.207 Y27.911 I-0.014 J0.014
G1 Z-1.421 F51.
G19 G3 Y27.99 Z-1.5 J0.079 K0.
G17 G3 X32.16 I-0.024 J0. F381.
X32.286 I0.063 J0.
X32.08 I-0.103 J0.
X32.286 I0.103 J0.
X32.253 Y28.005 I-0.02 J0.
G1 X32.188 Y27.944
G3 X32.207 Y27.911 I0.014 J-0.015
G1 Z-1.65 F51.
G3 X32.286 Y27.99 I0. J0.079 F381.
X32.08 I-0.103 J0.
X32.286 I0.103 J0.
G1 X32.183 Z-1.64
G0 Z5.
X42.357 Y27.911
G1 Z2.5 F51.
Z-0.071
G19 G3 Y27.99 Z-0.15 J0.079 K0.
G17 G3 X42.31 I-0.024 J0. F381.
X42.436 I0.063 J0.
X42.23 I-0.103 J0.
X42.436 I0.103 J0.
X42.402 Y28.004 I-0.02 J0.
G1 X42.323 Y27.925
G3 X42.351 Y27.896 I0.014 J-0.014
X42.357 Y27.911 I-0.014 J0.014
G1 Z-0.221 F51.
G19 G3 Y27.99 Z-0.3 J0.079 K0.
G17 G3 X42.31 I-0.024 J0. F381.
X42.436 I0.063 J0.
X42.23 I-0.103 J0.
X42.436 I0.103 J0.
X42.402 Y28.004 I-0.02 J0.
G1 X42.323 Y27.925
G3 X42.351 Y27.896 I0.014 J-0.014
X42.357 Y27.911 I-0.014 J0.014
G1 Z-0.371 F51.
G19 G3 Y27.99 Z-0.45 J0.079 K0.
G17 G3 X42.31 I-0.024 J0. F381.
X42.436 I0.063 J0.
X42.23 I-0.103 J0.
X42.436 I0.103 J0.
X42.402 Y28.004 I-0.02 J0.
G1 X42.323 Y27.925
G3 X42.351 Y27.896 I0.014 J-0.014
X42.357 Y27.911 I-0.014 J0.014
G1 Z-0.521 F51.
G19 G3 Y27.99 Z-0.6 J0.079 K0.
G17 G3 X42.31 I-0.024 J0. F381.
X42.436 I0.063 J0.
X42.23 I-0.103 J0.
X42.436 I0.103 J0.
X42.402 Y28.004 I-0.02 J0.
G1 X42.323 Y27.925
G3 X42.351 Y27.896 I0.014 J-0.014
X42.357 Y27.911 I-0.014 J0.014
G1 Z-0.671 F51.
G19 G3 Y27.99 Z-0.75 J0.079 K0.
G17 G3 X42.31 I-0.024 J0. F381.
X42.436 I0.063 J0.
X42.23 I-0.103 J0.
X42.436 I0.103 J0.
X42.402 Y28.004 I-0.02 J0.
G1 X42.323 Y27.925
G3 X42.351 Y27.896 I0.014 J-0.014
X42.357 Y27.911 I-0.014 J0.014
G1 Z-0.821 F51.
G19 G3 Y27.99 Z-0.9 J0.079 K0.
G17 G3 X42.31 I-0.024 J0. F381.
X42.436 I0.063 J0.
X42.23 I-0.103 J0.
X42.436 I0.103 J0.
X42.402 Y28.004 I-0.02 J0.
G1 X42.323 Y27.925
G3 X42.351 Y27.896 I0.014 J-0.014
X42.357 Y27.911 I-0.014 J0.014
G1 Z-0.971 F51.
G19 G3 Y27.99 Z-1.05 J0.079 K0.
G17 G3 X42.31 I-0.024 J0. F381.
X42.436 I0.063 J0.
X42.23 I-0.103 J0.
X42.436 I0.103 J0.
X42.402 Y28.004 I-0.02 J0.
G1 X42.323 Y27.925
G3 X42.351 Y27.896 I0.014 J-0.014
X42.357 Y27.911 I-0.014 J0.014
G1 Z-1.121 F51.
G19 G3 Y27.99 Z-1.2 J0.079 K0.
G17 G3 X42.31 I-0.024 J0. F381.
X42.436 I0.063 J0.
X42.23 I-0.103 J0.
X42.436 I0.103 J0.
X42.402 Y28.004 I-0.02 J0.
G1 X42.323 Y27.925
G3 X42.351 Y27.896 I0.014 J-0.014
X42.357 Y27.911 I-0.014 J0.014
G1 Z-1.271 F51.
G19 G3 Y27.99 Z-1.35 J0.079 K0.
G17 G3 X42.31 I-0.024 J0. F381.
X42.436 I0.063 J0.
X42.23 I-0.103 J0.
X42.436 I0.103 J0.
X42.402 Y28.004 I-0.02 J0.
G1 X42.323 Y27.925
G3 X42.351 Y27.896 I0.014 J-0.014
X42.357 Y27.911 I-0.014 J0.014
G1 Z-1.421 F51.
G19 G3 Y27.99 Z-1.5 J0.079 K0.
G17 G3 X42.31 I-0.024 J0. F381.
X42.436 I0.063 J0.
X42.23 I-0.103 J0.
X42.436 I0.103 J0.
G1 X42.433 Y27.997
X42.416 Y28.009
X42.413 Y28.014
Z-1.65 F51.
G3 X42.333 Y28.093 I-0.079 J0. F381.
Y27.887 I0. J-0.103
Y28.093 I0. J0.103
G1 Y27.99 Z-1.64
G0 Z5.
X32.199 Y9.921
G1 Z2.5 F51.
Z-0.071
G19 G3 Y10. Z-0.15 J0.079 K0.
G17 G3 X32.168 I-0.016 J0. F381.
X32.953 I0.393 J0.
X31.414 I-0.77 J0.
X33.707 I1.147 J0.
X30.66 I-1.524 J0.
X33.786 I1.563 J0.
X30.58 I-1.603 J0.
X33.786 I1.603 J0.
X33.765 Y10.02 I-0.02 J0.
G1 X32.22 Y9.901
G2 X32.199 Y9.921 I-0.002 J0.02
G1 Z-0.221 F51.
G19 G3 Y10. Z-0.3 J0.079 K0.
G17 G3 X32.168 I-0.016 J0. F381.
X32.953 I0.393 J0.
X31.414 I-0.77 J0.
X33.707 I1.147 J0.
X30.66 I-1.524 J0.
X33.786 I1.563 J0.
X30.58 I-1.603 J0.
X33.786 I1.603 J0.
X33.765 Y10.02 I-0.02 J0.
G1 X32.22 Y9.901
G2 X32.199 Y9.921 I-0.002 J0.02
G1 Z-0.371 F51.
G19 G3 Y10. Z-0.45 J0.079 K0.
G17 G3 X32.168 I-0.016 J0. F381.
X32.953 I0.393 J0.
X31.414 I-0.77 J0.
X33.707 I1.147 J0.
X30.66 I-1.524 J0.
X33.786 I1.563 J0.
X30.58 I-1.603 J0.
X33.786 I1.603 J0.
X33.765 Y10.02 I-0.02 J0.
G1 X32.22 Y9.901
G2 X32.199 Y9.921 I-0.002 J0.02
G1 Z-0.521 F51.
G19 G3 Y10. Z-0.6 J0.079 K0.
G17 G3 X32.168 I-0.016 J0. F381.
X32.953 I0.393 J0.
X31.414 I-0.77 J0.
X33.707 I1.147 J0.
X30.66 I-1.524 J0.
X33.786 I1.563 J0.
X30.58 I-1.603 J0.
X33.786 I1.603 J0.
X33.765 Y10.02 I-0.02 J0.
G1 X32.22 Y9.901
G2 X32.199 Y9.921 I-0.002 J0.02
G1 Z-0.671 F51.
G19 G3 Y10. Z-0.75 J0.079 K0.
G17 G3 X32.168 I-0.016 J0. F381.
X32.953 I0.393 J0.
X31.414 I-0.77 J0.
X33.707 I1.147 J0.
X30.66 I-1.524 J0.
X33.786 I1.563 J0.
X30.58 I-1.603 J0.
X33.786 I1.603 J0.
X33.765 Y10.02 I-0.02 J0.
G1 X32.22 Y9.901
G2 X32.199 Y9.921 I-0.002 J0.02
G1 Z-0.821 F51.
G19 G3 Y10. Z-0.9 J0.079 K0.
G17 G3 X32.168 I-0.016 J0. F381.
X32.953 I0.393 J0.
X31.414 I-0.77 J0.
X33.707 I1.147 J0.
X30.66 I-1.524 J0.
X33.786 I1.563 J0.
X30.58 I-1.603 J0.
X33.786 I1.603 J0.
X33.765 Y10.02 I-0.02 J0.
G1 X32.22 Y9.901
G2 X32.199 Y9.921 I-0.002 J0.02
G1 Z-0.971 F51.
G19 G3 Y10. Z-1.05 J0.079 K0.
G17 G3 X32.168 I-0.016 J0. F381.
X32.953 I0.393 J0.
X31.414 I-0.77 J0.
X33.707 I1.147 J0.
X30.66 I-1.524 J0.
X33.786 I1.563 J0.
X30.58 I-1.603 J0.
X33.786 I1.603 J0.
X33.765 Y10.02 I-0.02 J0.
G1 X32.22 Y9.901
G2 X32.199 Y9.921 I-0.002 J0.02
G1 Z-1.121 F51.
G19 G3 Y10. Z-1.2 J0.079 K0.
G17 G3 X32.168 I-0.016 J0. F381.
X32.953 I0.393 J0.
X31.414 I-0.77 J0.
X33.707 I1.147 J0.
X30.66 I-1.524 J0.
X33.786 I1.563 J0.
X30.58 I-1.603 J0.
X33.786 I1.603 J0.
X33.765 Y10.02 I-0.02 J0.
G1 X32.22 Y9.901
G2 X32.199 Y9.921 I-0.002 J0.02
G1 Z-1.271 F51.
G19 G3 Y10. Z-1.35 J0.079 K0.
G17 G3 X32.168 I-0.016 J0. F381.
X32.953 I0.393 J0.
X31.414 I-0.77 J0.
X33.707 I1.147 J0.
X30.66 I-1.524 J0.
X33.786 I1.563 J0.
X30.58 I-1.603 J0.
X33.786 I1.603 J0.
X33.765 Y10.02 I-0.02 J0.
G1 X32.22 Y9.901
G2 X32.199 Y9.921 I-0.002 J0.02
G1 Z-1.421 F51.
G19 G3 Y10. Z-1.5 J0.079 K0.
G17 G3 X32.168 I-0.016 J0. F381.
X32.953 I0.393 J0.
X31.414 I-0.77 J0.
X33.707 I1.147 J0.
X30.66 I-1.524 J0.
X33.786 I1.563 J0.
X30.58 I-1.603 J0.
X33.786 I1.603 J0.
X33.766 Y10.02 I-0.02 J0.
X33.746 Y10. I0. J-0.02
G1 X33.747 Y9.92
G2 X33.727 Y9.9 I-0.02 J0.
X33.707 Y9.921 I0. J0.02
G1 Z-1.65 F51.
G3 X33.786 Y10. I0. J0.079 F381.
X30.58 I-1.603 J0.
X33.786 I1.603 J0.
G1 X33.636 Z-1.635
G0 Z5.
X5.27 Y4.921
G1 Z2.5 F51.
Z-0.071
G19 G3 Y5. Z-0.15 J0.079 K0.
G17 G3 X4.73 I-0.27 J0. F381.
X6.024 I0.647 J0.
X3.976 I-1.024 J0.
X6.103 I1.063 J0.
X3.897 I-1.103 J0.
X6.103 I1.103 J0.
X6.08 Y5.02 I-0.02 J0.
G1 X5.293 Y4.901
G2 X5.27 Y4.921 I-0.003 J0.02
G1 Z-0.221 F51.
G19 G3 Y5. Z-0.3 J0.079 K0.
G17 G3 X4.73 I-0.27 J0. F381.
X6.024 I0.647 J0.
X3.976 I-1.024 J0.
X6.103 I1.063 J0.
X3.897 I-1.103 J0.
X6.103 I1.103 J0.
X6.08 Y5.02 I-0.02 J0.
G1 X5.293 Y4.901
G2 X5.27 Y4.921 I-0.003 J0.02
G1 Z-0.371 F51.
G19 G3 Y5. Z-0.45 J0.079 K0.
G17 G3 X4.73 I-0.27 J0. F381.
X6.024 I0.647 J0.
X3.976 I-1.024 J0.
X6.103 I1.063 J0.
X3.897 I-1.103 J0.
X6.103 I1.103 J0.
X6.08 Y5.02 I-0.02 J0.
G1 X5.293 Y4.901
G2 X5.27 Y4.921 I-0.003 J0.02
G1 Z-0.521 F51.
G19 G3 Y5. Z-0.6 J0.079 K0.
G17 G3 X4.73 I-0.27 J0. F381.
X6.024 I0.647 J0.
X3.976 I-1.024 J0.
X6.103 I1.063 J0.
X3.897 I-1.103 J0.
X6.103 I1.103 J0.
X6.08 Y5.02 I-0.02 J0.
G1 X5.293 Y4.901
G2 X5.27 Y4.921 I-0.003 J0.02
G1 Z-0.671 F51.
G19 G3 Y5. Z-0.75 J0.079 K0.
G17 G3 X4.73 I-0.27 J0. F381.
X6.024 I0.647 J0.
X3.976 I-1.024 J0.
X6.103 I1.063 J0.
X3.897 I-1.103 J0.
X6.103 I1.103 J0.
X6.08 Y5.02 I-0.02 J0.
G1 X5.293 Y4.901
G2 X5.27 Y4.921 I-0.003 J0.02
G1 Z-0.821 F51.
G19 G3 Y5. Z-0.9 J0.079 K0.
G17 G3 X4.73 I-0.27 J0. F381.
X6.024 I0.647 J0.
X3.976 I-1.024 J0.
X6.103 I1.063 J0.
X3.897 I-1.103 J0.
X6.103 I1.103 J0.
X6.08 Y5.02 I-0.02 J0.
G1 X5.293 Y4.901
G2 X5.27 Y4.921 I-0.003 J0.02
G1 Z-0.971 F51.
G19 G3 Y5. Z-1.05 J0.079 K0.
G17 G3 X4.73 I-0.27 J0. F381.
X6.024 I0.647 J0.
X3.976 I-1.024 J0.
X6.103 I1.063 J0.
X3.897 I-1.103 J0.
X6.103 I1.103 J0.
X6.08 Y5.02 I-0.02 J0.
G1 X5.293 Y4.901
G2 X5.27 Y4.921 I-0.003 J0.02
G1 Z-1.121 F51.
G19 G3 Y5. Z-1.2 J0.079 K0.
G17 G3 X4.73 I-0.27 J0. F381.
X6.024 I0.647 J0.
X3.976 I-1.024 J0.
X6.103 I1.063 J0.
X3.897 I-1.103 J0.
X6.103 I1.103 J0.
X6.08 Y5.02 I-0.02 J0.
G1 X5.293 Y4.901
G2 X5.27 Y4.921 I-0.003 J0.02
G1 Z-1.271 F51.
G19 G3 Y5. Z-1.35 J0.079 K0.
G17 G3 X4.73 I-0.27 J0. F381.
X6.024 I0.647 J0.
X3.976 I-1.024 J0.
X6.103 I1.063 J0.
X3.897 I-1.103 J0.
X6.103 I1.103 J0.
X6.08 Y5.02 I-0.02 J0.
G1 X5.293 Y4.901
G2 X5.27 Y4.921 I-0.003 J0.02
G1 Z-1.421 F51.
G19 G3 Y5. Z-1.5 J0.079 K0.
G17 G3 X4.73 I-0.27 J0. F381.
X6.024 I0.647 J0.
X3.976 I-1.024 J0.
X6.103 I1.063 J0.
X3.897 I-1.103 J0.
X6.103 I1.103 J0.
X6.083 Y5.02 I-0.02 J0.
X6.063 Y5. I0. J-0.02
G1 X6.064 Y4.919
G2 X6.043 Y4.899 I-0.02 J0.
X6.024 Y4.921 I0.001 J0.02
G1 Z-1.65 F51.
G3 X6.103 Y5. I0. J0.079 F381.
X3.897 I-1.103 J0.
X6.103 I1.103 J0.
G1 X5.952 Z-1.635
G0 Z5.
X63.516 Y9.921
G1 Z2.5 F51.
Z-0.071
G19 G3 Y10. Z-0.15 J0.079 K0.
G17 G3 X63.484 I-0.016 J0. F381.
X64.27 I0.393 J0.
X62.73 I-0.77 J0.
X65.024 I1.147 J0.
X61.976 I-1.524 J0.
X65.103 I1.563 J0.
X61.897 I-1.603 J0.
X65.103 I1.603 J0.
X65.082 Y10.02 I-0.02 J0.
G1 X63.537 Y9.901
G2 X63.516 Y9.921 I-0.002 J0.02
G1 Z-0.221 F51.
G19 G3 Y10. Z-0.3 J0.079 K0.
G17 G3 X63.484 I-0.016 J0. F381.
X64.27 I0.393 J0.
X62.73 I-0.77 J0.
X65.024 I1.147 J0.
X61.976 I-1.524 J0.
X65.103 I1.563 J0.
X61.897 I-1.603 J0.
X65.103 I1.603 J0.
X65.082 Y10.02 I-0.02 J0.
G1 X63.537 Y9.901
G2 X63.516 Y9.921 I-0.002 J0.02
G1 Z-0.371 F51.
G19 G3 Y10. Z-0.45 J0.079 K0.
G17 G3 X63.484 I-0.016 J0. F381.
X64.27 I0.393 J0.
X62.73 I-0.77 J0.
X65.024 I1.147 J0.
X61.976 I-1.524 J0.
X65.103 I1.563 J0.
X61.897 I-1.603 J0.
X65.103 I1.603 J0.
X65.082 Y10.02 I-0.02 J0.
G1 X63.537 Y9.901
G2 X63.516 Y9.921 I-0.002 J0.02
G1 Z-0.521 F51.
G19 G3 Y10. Z-0.6 J0.079 K0.
G17 G3 X63.484 I-0.016 J0. F381.
X64.27 I0.393 J0.
X62.73 I-0.77 J0.
X65.024 I1.147 J0.
X61.976 I-1.524 J0.
X65.103 I1.563 J0.
X61.897 I-1.603 J0.
X65.103 I1.603 J0.
X65.082 Y10.02 I-0.02 J0.
G1 X63.537 Y9.901
G2 X63.516 Y9.921 I-0.002 J0.02
G1 Z-0.671 F51.
G19 G3 Y10. Z-0.75 J0.079 K0.
G17 G3 X63.484 I-0.016 J0. F381.
X64.27 I0.393 J0.
X62.73 I-0.77 J0.
X65.024 I1.147 J0.
X61.976 I-1.524 J0.
X65.103 I1.563 J0.
X61.897 I-1.603 J0.
X65.103 I1.603 J0.
X65.082 Y10.02 I-0.02 J0.
G1 X63.537 Y9.901
G2 X63.516 Y9.921 I-0.002 J0.02
G1 Z-0.821 F51.
G19 G3 Y10. Z-0.9 J0.079 K0.
G17 G3 X63.484 I-0.016 J0. F381.
X64.27 I0.393 J0.
X62.73 I-0.77 J0.
X65.024 I1.147 J0.
X61.976 I-1.524 J0.
X65.103 I1.563 J0.
X61.897 I-1.603 J0.
X65.103 I1.603 J0.
X65.082 Y10.02 I-0.02 J0.
G1 X63.537 Y9.901
G2 X63.516 Y9.921 I-0.002 J0.02
G1 Z-0.971 F51.
G19 G3 Y10. Z-1.05 J0.079 K0.
G17 G3 X63.484 I-0.016 J0. F381.
X64.27 I0.393 J0.
X62.73 I-0.77 J0.
X65.024 I1.147 J0.
X61.976 I-1.524 J0.
X65.103 I1.563 J0.
X61.897 I-1.603 J0.
X65.103 I1.603 J0.
X65.082 Y10.02 I-0.02 J0.
G1 X63.537 Y9.901
G2 X63.516 Y9.921 I-0.002 J0.02
G1 Z-1.121 F51.
G19 G3 Y10. Z-1.2 J0.079 K0.
G17 G3 X63.484 I-0.016 J0. F381.
X64.27 I0.393 J0.
X62.73 I-0.77 J0.
X65.024 I1.147 J0.
X61.976 I-1.524 J0.
X65.103 I1.563 J0.
X61.897 I-1.603 J0.
X65.103 I1.603 J0.
X65.082 Y10.02 I-0.02 J0.
G1 X63.537 Y9.901
G2 X63.516 Y9.921 I-0.002 J0.02
G1 Z-1.271 F51.
G19 G3 Y10. Z-1.35 J0.079 K0.
G17 G3 X63.484 I-0.016 J0. F381.
X64.27 I0.393 J0.
X62.73 I-0.77 J0.
X65.024 I1.147 J0.
X61.976 I-1.524 J0.
X65.103 I1.563 J0.
X61.897 I-1.603 J0.
X65.103 I1.603 J0.
X65.082 Y10.02 I-0.02 J0.
G1 X63.537 Y9.901
G2 X63.516 Y9.921 I-0.002 J0.02
G1 Z-1.421 F51.
G19 G3 Y10. Z-1.5 J0.079 K0.
G17 G3 X63.484 I-0.016 J0. F381.
X64.27 I0.393 J0.
X62.73 I-0.77 J0.
X65.024 I1.147 J0.
X61.976 I-1.524 J0.
X65.103 I1.563 J0.
X61.897 I-1.603 J0.
X65.103 I1.603 J0.
X65.083 Y10.02 I-0.02 J0.
X65.063 Y10. I0. J-0.02
G1 X65.064 Y9.92
G2 X65.043 Y9.9 I-0.02 J0.
X65.024 Y9.921 I0. J0.02
G1 Z-1.65 F51.
G3 X65.103 Y10. I0. J0.079 F381.
X61.897 I-1.603 J0.
X65.103 I1.603 J0.
G1 X64.952 Z-1.635
G0 Z5.
X84.682 Y9.921
G1 Z2.5 F51.
Z-0.071
G19 G3 Y10. Z-0.15 J0.079 K0.
G17 G3 X84.651 I-0.016 J0. F381.
X85.436 I0.393 J0.
X83.897 I-0.77 J0.
X86.19 I1.147 J0.
X83.143 I-1.524 J0.
X86.27 I1.563 J0.
X83.064 I-1.603 J0.
X86.27 I1.603 J0.
X86.248 Y10.02 I-0.02 J0.
G1 X84.704 Y9.901
G2 X84.682 Y9.921 I-0.002 J0.02
G1 Z-0.221 F51.
G19 G3 Y10. Z-0.3 J0.079 K0.
G17 G3 X84.651 I-0.016 J0. F381.
X85.436 I0.393 J0.
X83.897 I-0.77 J0.
X86.19 I1.147 J0.
X83.143 I-1.524 J0.
X86.27 I1.563 J0.
X83.064 I-1.603 J0.
X86.27 I1.603 J0.
X86.248 Y10.02 I-0.02 J0.
G1 X84.704 Y9.901
G2 X84.682 Y9.921 I-0.002 J0.02
G1 Z-0.371 F51.
G19 G3 Y10. Z-0.45 J0.079 K0.
G17 G3 X84.651 I-0.016 J0. F381.
X85.436 I0.393 J0.
X83.897 I-0.77 J0.
X86.19 I1.147 J0.
X83.143 I-1.524 J0.
X86.27 I1.563 J0.
X83.064 I-1.603 J0.
X86.27 I1.603 J0.
X86.248 Y10.02 I-0.02 J0.
G1 X84.704 Y9.901
G2 X84.682 Y9.921 I-0.002 J0.02
G1 Z-0.521 F51.
G19 G3 Y10. Z-0.6 J0.079 K0.
G17 G3 X84.651 I-0.016 J0. F381.
X85.436 I0.393 J0.
X83.897 I-0.77 J0.
X86.19 I1.147 J0.
X83.143 I-1.524 J0.
X86.27 I1.563 J0.
X83.064 I-1.603 J0.
X86.27 I1.603 J0.
X86.248 Y10.02 I-0.02 J0.
G1 X84.704 Y9.901
G2 X84.682 Y9.921 I-0.002 J0.02
G1 Z-0.671 F51.
G19 G3 Y10. Z-0.75 J0.079 K0.
G17 G3 X84.651 I-0.016 J0. F381.
X85.436 I0.393 J0.
X83.897 I-0.77 J0.
X86.19 I1.147 J0.
X83.143 I-1.524 J0.
X86.27 I1.563 J0.
X83.064 I-1.603 J0.
X86.27 I1.603 J0.
X86.248 Y10.02 I-0.02 J0.
G1 X84.704 Y9.901
G2 X84.682 Y9.921 I-0.002 J0.02
G1 Z-0.821 F51.
G19 G3 Y10. Z-0.9 J0.079 K0.
G17 G3 X84.651 I-0.016 J0. F381.
X85.436 I0.393 J0.
X83.897 I-0.77 J0.
X86.19 I1.147 J0.
X83.143 I-1.524 J0.
X86.27 I1.563 J0.
X83.064 I-1.603 J0.
X86.27 I1.603 J0.
X86.248 Y10.02 I-0.02 J0.
G1 X84.704 Y9.901
G2 X84.682 Y9.921 I-0.002 J0.02
G1 Z-0.971 F51.
G19 G3 Y10. Z-1.05 J0.079 K0.
G17 G3 X84.651 I-0.016 J0. F381.
X85.436 I0.393 J0.
X83.897 I-0.77 J0.
X86.19 I1.147 J0.
X83.143 I-1.524 J0.
X86.27 I1.563 J0.
X83.064 I-1.603 J0.
X86.27 I1.603 J0.
X86.248 Y10.02 I-0.02 J0.
G1 X84.704 Y9.901
G2 X84.682 Y9.921 I-0.002 J0.02
G1 Z-1.121 F51.
G19 G3 Y10. Z-1.2 J0.079 K0.
G17 G3 X84.651 I-0.016 J0. F381.
X85.436 I0.393 J0.
X83.897 I-0.77 J0.
X86.19 I1.147 J0.
X83.143 I-1.524 J0.
X86.27 I1.563 J0.
X83.064 I-1.603 J0.
X86.27 I1.603 J0.
X86.248 Y10.02 I-0.02 J0.
G1 X84.704 Y9.901
G2 X84.682 Y9.921 I-0.002 J0.02
G1 Z-1.271 F51.
G19 G3 Y10. Z-1.35 J0.079 K0.
G17 G3 X84.651 I-0.016 J0. F381.
X85.436 I0.393 J0.
X83.897 I-0.77 J0.
X86.19 I1.147 J0.
X83.143 I-1.524 J0.
X86.27 I1.563 J0.
X83.064 I-1.603 J0.
X86.27 I1.603 J0.
X86.248 Y10.02 I-0.02 J0.
G1 X84.704 Y9.901
G2 X84.682 Y9.921 I-0.002 J0.02
G1 Z-1.421 F51.
G19 G3 Y10. Z-1.5 J0.079 K0.
G17 G3 X84.651 I-0.016 J0. F381.
X85.436 I0.393 J0.
X83.897 I-0.77 J0.
X86.19 I1.147 J0.
X83.143 I-1.524 J0.
X86.27 I1.563 J0.
X83.064 I-1.603 J0.
X86.27 I1.603 J0.
X86.25 Y10.02 I-0.02 J0.
X86.23 Y10. I0. J-0.02
G1 Y9.92
G2 X86.21 Y9.9 I-0.02 J0.
X86.19 Y9.921 I0. J0.02
G1 Z-1.65 F51.
G3 X86.27 Y10. I0. J0.079 F381.
X83.064 I-1.603 J0.
X86.27 I1.603 J0.
G1 X86.119 Z-1.635
G0 Z5.
X84.69 Y27.911
G1 Z2.5 F51.
Z-0.071
G19 G3 Y27.99 Z-0.15 J0.079 K0.
G17 G3 X84.643 I-0.024 J0. F381.
X84.77 I0.063 J0.
X84.564 I-0.103 J0.
X84.77 I0.103 J0.
X84.736 Y28.004 I-0.02 J0.
G1 X84.656 Y27.925
G3 X84.685 Y27.896 I0.014 J-0.014
X84.69 Y27.911 I-0.014 J0.014
G1 Z-0.221 F51.
G19 G3 Y27.99 Z-0.3 J0.079 K0.
G17 G3 X84.643 I-0.024 J0. F381.
X84.77 I0.063 J0.
X84.564 I-0.103 J0.
X84.77 I0.103 J0.
X84.736 Y28.004 I-0.02 J0.
G1 X84.656 Y27.925
G3 X84.685 Y27.896 I0.014 J-0.014
X84.69 Y27.911 I-0.014 J0.014
G1 Z-0.371 F51.
G19 G3 Y27.99 Z-0.45 J0.079 K0.
G17 G3 X84.643 I-0.024 J0. F381.
X84.77 I0.063 J0.
X84.564 I-0.103 J0.
X84.77 I0.103 J0.
X84.736 Y28.004 I-0.02 J0.
G1 X84.656 Y27.925
G3 X84.685 Y27.896 I0.014 J-0.014
X84.69 Y27.911 I-0.014 J0.014
G1 Z-0.521 F51.
G19 G3 Y27.99 Z-0.6 J0.079 K0.
G17 G3 X84.643 I-0.024 J0. F381.
X84.77 I0.063 J0.
X84.564 I-0.103 J0.
X84.77 I0.103 J0.
X84.736 Y28.004 I-0.02 J0.
G1 X84.656 Y27.925
G3 X84.685 Y27.896 I0.014 J-0.014
X84.69 Y27.911 I-0.014 J0.014
G1 Z-0.671 F51.
G19 G3 Y27.99 Z-0.75 J0.079 K0.
G17 G3 X84.643 I-0.024 J0. F381.
X84.77 I0.063 J0.
X84.564 I-0.103 J0.
X84.77 I0.103 J0.
X84.736 Y28.004 I-0.02 J0.
G1 X84.656 Y27.925
G3 X84.685 Y27.896 I0.014 J-0.014
X84.69 Y27.911 I-0.014 J0.014
G1 Z-0.821 F51.
G19 G3 Y27.99 Z-0.9 J0.079 K0.
G17 G3 X84.643 I-0.024 J0. F381.
X84.77 I0.063 J0.
X84.564 I-0.103 J0.
X84.77 I0.103 J0.
X84.736 Y28.004 I-0.02 J0.
G1 X84.656 Y27.925
G3 X84.685 Y27.896 I0.014 J-0.014
X84.69 Y27.911 I-0.014 J0.014
G1 Z-0.971 F51.
G19 G3 Y27.99 Z-1.05 J0.079 K0.
G17 G3 X84.643 I-0.024 J0. F381.
X84.77 I0.063 J0.
X84.564 I-0.103 J0.
X84.77 I0.103 J0.
X84.736 Y28.004 I-0.02 J0.
G1 X84.656 Y27.925
G3 X84.685 Y27.896 I0.014 J-0.014
X84.69 Y27.911 I-0.014 J0.014
G1 Z-1.121 F51.
G19 G3 Y27.99 Z-1.2 J0.079 K0.
G17 G3 X84.643 I-0.024 J0. F381.
X84.77 I0.063 J0.
X84.564 I-0.103 J0.
X84.77 I0.103 J0.
X84.736 Y28.004 I-0.02 J0.
G1 X84.656 Y27.925
G3 X84.685 Y27.896 I0.014 J-0.014
X84.69 Y27.911 I-0.014 J0.014
G1 Z-1.271 F51.
G19 G3 Y27.99 Z-1.35 J0.079 K0.
G17 G3 X84.643 I-0.024 J0. F381.
X84.77 I0.063 J0.
X84.564 I-0.103 J0.
X84.77 I0.103 J0.
X84.736 Y28.004 I-0.02 J0.
G1 X84.656 Y27.925
G3 X84.685 Y27.896 I0.014 J-0.014
X84.69 Y27.911 I-0.014 J0.014
G1 Z-1.421 F51.
G19 G3 Y27.99 Z-1.5 J0.079 K0.
G17 G3 X84.643 I-0.024 J0. F381.
X84.77 I0.063 J0.
X84.564 I-0.103 J0.
X84.77 I0.103 J0.
X84.736 Y28.005 I-0.02 J0.
G1 X84.671 Y27.944
G3 X84.69 Y27.911 I0.014 J-0.015
G1 Z-1.65 F51.
G3 X84.77 Y27.99 I0. J0.079 F381.
X84.564 I-0.103 J0.
X84.77 I0.103 J0.
G1 X84.667 Z-1.64
G0 Z5.
X74.54 Y27.911
G1 Z2.5 F51.
Z-0.071
G19 G3 Y27.99 Z-0.15 J0.079 K0.
G17 G3 X74.493 I-0.024 J0. F381.
X74.62 I0.063 J0.
X74.414 I-0.103 J0.
X74.62 I0.103 J0.
X74.586 Y28.004 I-0.02 J0.
G1 X74.506 Y27.925
G3 X74.535 Y27.896 I0.014 J-0.014
X74.54 Y27.911 I-0.014 J0.014
G1 Z-0.221 F51.
G19 G3 Y27.99 Z-0.3 J0.079 K0.
G17 G3 X74.493 I-0.024 J0. F381.
X74.62 I0.063 J0.
X74.414 I-0.103 J0.
X74.62 I0.103 J0.
X74.586 Y28.004 I-0.02 J0.
G1 X74.506 Y27.925
G3 X74.535 Y27.896 I0.014 J-0.014
X74.54 Y27.911 I-0.014 J0.014
G1 Z-0.371 F51.
G19 G3 Y27.99 Z-0.45 J0.079 K0.
G17 G3 X74.493 I-0.024 J0. F381.
X74.62 I0.063 J0.
X74.414 I-0.103 J0.
X74.62 I0.103 J0.
X74.586 Y28.004 I-0.02 J0.
G1 X74.506 Y27.925
G3 X74.535 Y27.896 I0.014 J-0.014
X74.54 Y27.911 I-0.014 J0.014
G1 Z-0.521 F51.
G19 G3 Y27.99 Z-0.6 J0.079 K0.
G17 G3 X74.493 I-0.024 J0. F381.
X74.62 I0.063 J0.
X74.414 I-0.103 J0.
X74.62 I0.103 J0.
X74.586 Y28.004 I-0.02 J0.
G1 X74.506 Y27.925
G3 X74.535 Y27.896 I0.014 J-0.014
X74.54 Y27.911 I-0.014 J0.014
G1 Z-0.671 F51.
G19 G3 Y27.99 Z-0.75 J0.079 K0.
G17 G3 X74.493 I-0.024 J0. F381.
X74.62 I0.063 J0.
X74.414 I-0.103 J0.
X74.62 I0.103 J0.
X74.586 Y28.004 I-0.02 J0.
G1 X74.506 Y27.925
G3 X74.535 Y27.896 I0.014 J-0.014
X74.54 Y27.911 I-0.014 J0.014
G1 Z-0.821 F51.
G19 G3 Y27.99 Z-0.9 J0.079 K0.
G17 G3 X74.493 I-0.024 J0. F381.
X74.62 I0.063 J0.
X74.414 I-0.103 J0.
X74.62 I0.103 J0.
X74.586 Y28.004 I-0.02 J0.
G1 X74.506 Y27.925
G3 X74.535 Y27.896 I0.014 J-0.014
X74.54 Y27.911 I-0.014 J0.014
G1 Z-0.971 F51.
G19 G3 Y27.99 Z-1.05 J0.079 K0.
G17 G3 X74.493 I-0.024 J0. F381.
X74.62 I0.063 J0.
X74.414 I-0.103 J0.
X74.62 I0.103 J0.
X74.586 Y28.004 I-0.02 J0.
G1 X74.506 Y27.925
G3 X74.535 Y27.896 I0.014 J-0.014
X74.54 Y27.911 I-0.014 J0.014
G1 Z-1.121 F51.
G19 G3 Y27.99 Z-1.2 J0.079 K0.
G17 G3 X74.493 I-0.024 J0. F381.
X74.62 I0.063 J0.
X74.414 I-0.103 J0.
X74.62 I0.103 J0.
X74.586 Y28.004 I-0.02 J0.
G1 X74.506 Y27.925
G3 X74.535 Y27.896 I0.014 J-0.014
X74.54 Y27.911 I-0.014 J0.014
G1 Z-1.271 F51.
G19 G3 Y27.99 Z-1.35 J0.079 K0.
G17 G3 X74.493 I-0.024 J0. F381.
X74.62 I0.063 J0.
X74.414 I-0.103 J0.
X74.62 I0.103 J0.
X74.586 Y28.004 I-0.02 J0.
G1 X74.506 Y27.925
G3 X74.535 Y27.896 I0.014 J-0.014
X74.54 Y27.911 I-0.014 J0.014
G1 Z-1.421 F51.
G19 G3 Y27.99 Z-1.5 J0.079 K0.
G17 G3 X74.493 I-0.024 J0. F381.
X74.62 I0.063 J0.
X74.414 I-0.103 J0.
X74.62 I0.103 J0.
X74.586 Y28.005 I-0.02 J0.
G1 X74.521 Y27.944
G3 X74.54 Y27.911 I0.014 J-0.015
G1 Z-1.65 F51.
G3 X74.62 Y27.99 I0. J0.079 F381.
X74.414 I-0.103 J0.
X74.62 I0.103 J0.
G1 X74.517 Z-1.64
G0 Z5.
X74.54 Y73.611
G1 Z2.5 F51.
Z-0.071
G19 G3 Y73.69 Z-0.15 J0.079 K0.
G17 G3 X74.493 I-0.024 J0. F381.
X74.62 I0.063 J0.
X74.414 I-0.103 J0.
X74.62 I0.103 J0.
X74.586 Y73.704 I-0.02 J0.
G1 X74.506 Y73.625
G3 X74.535 Y73.596 I0.014 J-0.014
X74.54 Y73.611 I-0.014 J0.014
G1 Z-0.221 F51.
G19 G3 Y73.69 Z-0.3 J0.079 K0.
G17 G3 X74.493 I-0.024 J0. F381.
X74.62 I0.063 J0.
X74.414 I-0.103 J0.
X74.62 I0.103 J0.
X74.586 Y73.704 I-0.02 J0.
G1 X74.506 Y73.625
G3 X74.535 Y73.596 I0.014 J-0.014
X74.54 Y73.611 I-0.014 J0.014
G1 Z-0.371 F51.
G19 G3 Y73.69 Z-0.45 J0.079 K0.
G17 G3 X74.493 I-0.024 J0. F381.
X74.62 I0.063 J0.
X74.414 I-0.103 J0.
X74.62 I0.103 J0.
X74.586 Y73.704 I-0.02 J0.
G1 X74.506 Y73.625
G3 X74.535 Y73.596 I0.014 J-0.014
X74.54 Y73.611 I-0.014 J0.014
G1 Z-0.521 F51.
G19 G3 Y73.69 Z-0.6 J0.079 K0.
G17 G3 X74.493 I-0.024 J0. F381.
X74.62 I0.063 J0.
X74.414 I-0.103 J0.
X74.62 I0.103 J0.
X74.586 Y73.704 I-0.02 J0.
G1 X74.506 Y73.625
G3 X74.535 Y73.596 I0.014 J-0.014
X74.54 Y73.611 I-0.014 J0.014
G1 Z-0.671 F51.
G19 G3 Y73.69 Z-0.75 J0.079 K0.
G17 G3 X74.493 I-0.024 J0. F381.
X74.62 I0.063 J0.
X74.414 I-0.103 J0.
X74.62 I0.103 J0.
X74.586 Y73.704 I-0.02 J0.
G1 X74.506 Y73.625
G3 X74.535 Y73.596 I0.014 J-0.014
X74.54 Y73.611 I-0.014 J0.014
G1 Z-0.821 F51.
G19 G3 Y73.69 Z-0.9 J0.079 K0.
G17 G3 X74.493 I-0.024 J0. F381.
X74.62 I0.063 J0.
X74.414 I-0.103 J0.
X74.62 I0.103 J0.
X74.586 Y73.704 I-0.02 J0.
G1 X74.506 Y73.625
G3 X74.535 Y73.596 I0.014 J-0.014
X74.54 Y73.611 I-0.014 J0.014
G1 Z-0.971 F51.
G19 G3 Y73.69 Z-1.05 J0.079 K0.
G17 G3 X74.493 I-0.024 J0. F381.
X74.62 I0.063 J0.
X74.414 I-0.103 J0.
X74.62 I0.103 J0.
X74.586 Y73.704 I-0.02 J0.
G1 X74.506 Y73.625
G3 X74.535 Y73.596 I0.014 J-0.014
X74.54 Y73.611 I-0.014 J0.014
G1 Z-1.121 F51.
G19 G3 Y73.69 Z-1.2 J0.079 K0.
G17 G3 X74.493 I-0.024 J0. F381.
X74.62 I0.063 J0.
X74.414 I-0.103 J0.
X74.62 I0.103 J0.
X74.586 Y73.704 I-0.02 J0.
G1 X74.506 Y73.625
G3 X74.535 Y73.596 I0.014 J-0.014
X74.54 Y73.611 I-0.014 J0.014
G1 Z-1.271 F51.
G19 G3 Y73.69 Z-1.35 J0.079 K0.
G17 G3 X74.493 I-0.024 J0. F381.
X74.62 I0.063 J0.
X74.414 I-0.103 J0.
X74.62 I0.103 J0.
X74.586 Y73.704 I-0.02 J0.
G1 X74.506 Y73.625
G3 X74.535 Y73.596 I0.014 J-0.014
X74.54 Y73.611 I-0.014 J0.014
G1 Z-1.421 F51.
G19 G3 Y73.69 Z-1.5 J0.079 K0.
G17 G3 X74.493 I-0.024 J0. F381.
X74.62 I0.063 J0.
X74.414 I-0.103 J0.
X74.62 I0.103 J0.
X74.61 Y73.707 I-0.02 J0.
G1 X74.509 Y73.767
G3 X74.493 Y73.769 I-0.01 J-0.017
G1 Z-1.65 F51.
G3 X74.414 Y73.69 I0. J-0.079 F381.
X74.62 I0.103 J0.
X74.414 I-0.103 J0.
G1 X74.517 Z-1.64
G0 Z5.
X94.84 Y73.611
G1 Z2.5 F51.
Z-0.071
G19 G3 Y73.69 Z-0.15 J0.079 K0.
G17 G3 X94.793 I-0.024 J0. F381.
X94.92 I0.063 J0.
X94.714 I-0.103 J0.
X94.92 I0.103 J0.
X94.886 Y73.704 I-0.02 J0.
G1 X94.806 Y73.625
G3 X94.835 Y73.596 I0.014 J-0.014
X94.84 Y73.611 I-0.014 J0.014
G1 Z-0.221 F51.
G19 G3 Y73.69 Z-0.3 J0.079 K0.
G17 G3 X94.793 I-0.024 J0. F381.
X94.92 I0.063 J0.
X94.714 I-0.103 J0.
X94.92 I0.103 J0.
X94.886 Y73.704 I-0.02 J0.
G1 X94.806 Y73.625
G3 X94.835 Y73.596 I0.014 J-0.014
X94.84 Y73.611 I-0.014 J0.014
G1 Z-0.371 F51.
G19 G3 Y73.69 Z-0.45 J0.079 K0.
G17 G3 X94.793 I-0.024 J0. F381.
X94.92 I0.063 J0.
X94.714 I-0.103 J0.
X94.92 I0.103 J0.
X94.886 Y73.704 I-0.02 J0.
G1 X94.806 Y73.625
G3 X94.835 Y73.596 I0.014 J-0.014
X94.84 Y73.611 I-0.014 J0.014
G1 Z-0.521 F51.
G19 G3 Y73.69 Z-0.6 J0.079 K0.
G17 G3 X94.793 I-0.024 J0. F381.
X94.92 I0.063 J0.
X94.714 I-0.103 J0.
X94.92 I0.103 J0.
X94.886 Y73.704 I-0.02 J0.
G1 X94.806 Y73.625
G3 X94.835 Y73.596 I0.014 J-0.014
X94.84 Y73.611 I-0.014 J0.014
G1 Z-0.671 F51.
G19 G3 Y73.69 Z-0.75 J0.079 K0.
G17 G3 X94.793 I-0.024 J0. F381.
X94.92 I0.063 J0.
X94.714 I-0.103 J0.
X94.92 I0.103 J0.
X94.886 Y73.704 I-0.02 J0.
G1 X94.806 Y73.625
G3 X94.835 Y73.596 I0.014 J-0.014
X94.84 Y73.611 I-0.014 J0.014
G1 Z-0.821 F51.
G19 G3 Y73.69 Z-0.9 J0.079 K0.
G17 G3 X94.793 I-0.024 J0. F381.
X94.92 I0.063 J0.
X94.714 I-0.103 J0.
X94.92 I0.103 J0.
X94.886 Y73.704 I-0.02 J0.
G1 X94.806 Y73.625
G3 X94.835 Y73.596 I0.014 J-0.014
X94.84 Y73.611 I-0.014 J0.014
G1 Z-0.971 F51.
G19 G3 Y73.69 Z-1.05 J0.079 K0.
G17 G3 X94.793 I-0.024 J0. F381.
X94.92 I0.063 J0.
X94.714 I-0.103 J0.
X94.92 I0.103 J0.
X94.886 Y73.704 I-0.02 J0.
G1 X94.806 Y73.625
G3 X94.835 Y73.596 I0.014 J-0.014
X94.84 Y73.611 I-0.014 J0.014
G1 Z-1.121 F51.
G19 G3 Y73.69 Z-1.2 J0.079 K0.
G17 G3 X94.793 I-0.024 J0. F381.
X94.92 I0.063 J0.
X94.714 I-0.103 J0.
X94.92 I0.103 J0.
X94.886 Y73.704 I-0.02 J0.
G1 X94.806 Y73.625
G3 X94.835 Y73.596 I0.014 J-0.014
X94.84 Y73.611 I-0.014 J0.014
G1 Z-1.271 F51.
G19 G3 Y73.69 Z-1.35 J0.079 K0.
G17 G3 X94.793 I-0.024 J0. F381.
X94.92 I0.063 J0.
X94.714 I-0.103 J0.
X94.92 I0.103 J0.
X94.886 Y73.704 I-0.02 J0.
G1 X94.806 Y73.625
G3 X94.835 Y73.596 I0.014 J-0.014
X94.84 Y73.611 I-0.014 J0.014
G1 Z-1.421 F51.
G19 G3 Y73.69 Z-1.5 J0.079 K0.
G17 G3 X94.793 I-0.024 J0. F381.
X94.92 I0.063 J0.
X94.714 I-0.103 J0.
X94.92 I0.103 J0.
X94.886 Y73.705 I-0.02 J0.
G1 X94.821 Y73.644
G3 X94.84 Y73.611 I0.014 J-0.015
G1 Z-1.65 F51.
G3 X94.92 Y73.69 I0. J0.079 F381.
X94.714 I-0.103 J0.
X94.92 I0.103 J0.
G1 X94.817 Z-1.64
G0 Z5.
X94.832 Y91.601
G1 Z2.5 F51.
Z-0.071
G19 G3 Y91.68 Z-0.15 J0.079 K0.
G17 G3 X94.801 I-0.016 J0. F381.
X95.586 I0.393 J0.
X94.047 I-0.77 J0.
X96.34 I1.147 J0.
X93.293 I-1.524 J0.
X96.42 I1.563 J0.
X93.214 I-1.603 J0.
X96.42 I1.603 J0.
X96.398 Y91.7 I-0.02 J0.
G1 X94.854 Y91.581
G2 X94.832 Y91.601 I-0.002 J0.02
G1 Z-0.221 F51.
G19 G3 Y91.68 Z-0.3 J0.079 K0.
G17 G3 X94.801 I-0.016 J0. F381.
X95.586 I0.393 J0.
X94.047 I-0.77 J0.
X96.34 I1.147 J0.
X93.293 I-1.524 J0.
X96.42 I1.563 J0.
X93.214 I-1.603 J0.
X96.42 I1.603 J0.
X96.398 Y91.7 I-0.02 J0.
G1 X94.854 Y91.581
G2 X94.832 Y91.601 I-0.002 J0.02
G1 Z-0.371 F51.
G19 G3 Y91.68 Z-0.45 J0.079 K0.
G17 G3 X94.801 I-0.016 J0. F381.
X95.586 I0.393 J0.
X94.047 I-0.77 J0.
X96.34 I1.147 J0.
X93.293 I-1.524 J0.
X96.42 I1.563 J0.
X93.214 I-1.603 J0.
X96.42 I1.603 J0.
X96.398 Y91.7 I-0.02 J0.
G1 X94.854 Y91.581
G2 X94.832 Y91.601 I-0.002 J0.02
G1 Z-0.521 F51.
G19 G3 Y91.68 Z-0.6 J0.079 K0.
G17 G3 X94.801 I-0.016 J0. F381.
X95.586 I0.393 J0.
X94.047 I-0.77 J0.
X96.34 I1.147 J0.
X93.293 I-1.524 J0.
X96.42 I1.563 J0.
X93.214 I-1.603 J0.
X96.42 I1.603 J0.
X96.398 Y91.7 I-0.02 J0.
G1 X94.854 Y91.581
G2 X94.832 Y91.601 I-0.002 J0.02
G1 Z-0.671 F51.
G19 G3 Y91.68 Z-0.75 J0.079 K0.
G17 G3 X94.801 I-0.016 J0. F381.
X95.586 I0.393 J0.
X94.047 I-0.77 J0.
X96.34 I1.147 J0.
X93.293 I-1.524 J0.
X96.42 I1.563 J0.
X93.214 I-1.603 J0.
X96.42 I1.603 J0.
X96.398 Y91.7 I-0.02 J0.
G1 X94.854 Y91.581
G2 X94.832 Y91.601 I-0.002 J0.02
G1 Z-0.821 F51.
G19 G3 Y91.68 Z-0.9 J0.079 K0.
G17 G3 X94.801 I-0.016 J0. F381.
X95.586 I0.393 J0.
X94.047 I-0.77 J0.
X96.34 I1.147 J0.
X93.293 I-1.524 J0.
X96.42 I1.563 J0.
X93.214 I-1.603 J0.
X96.42 I1.603 J0.
X96.398 Y91.7 I-0.02 J0.
G1 X94.854 Y91.581
G2 X94.832 Y91.601 I-0.002 J0.02
G1 Z-0.971 F51.
G19 G3 Y91.68 Z-1.05 J0.079 K0.
G17 G3 X94.801 I-0.016 J0. F381.
X95.586 I0.393 J0.
X94.047 I-0.77 J0.
X96.34 I1.147 J0.
X93.293 I-1.524 J0.
X96.42 I1.563 J0.
X93.214 I-1.603 J0.
X96.42 I1.603 J0.
X96.398 Y91.7 I-0.02 J0.
G1 X94.854 Y91.581
G2 X94.832 Y91.601 I-0.002 J0.02
G1 Z-1.121 F51.
G19 G3 Y91.68 Z-1.2 J0.079 K0.
G17 G3 X94.801 I-0.016 J0. F381.
X95.586 I0.393 J0.
X94.047 I-0.77 J0.
X96.34 I1.147 J0.
X93.293 I-1.524 J0.
X96.42 I1.563 J0.
X93.214 I-1.603 J0.
X96.42 I1.603 J0.
X96.398 Y91.7 I-0.02 J0.
G1 X94.854 Y91.581
G2 X94.832 Y91.601 I-0.002 J0.02
G1 Z-1.271 F51.
G19 G3 Y91.68 Z-1.35 J0.079 K0.
G17 G3 X94.801 I-0.016 J0. F381.
X95.586 I0.393 J0.
X94.047 I-0.77 J0.
X96.34 I1.147 J0.
X93.293 I-1.524 J0.
X96.42 I1.563 J0.
X93.214 I-1.603 J0.
X96.42 I1.603 J0.
X96.398 Y91.7 I-0.02 J0.
G1 X94.854 Y91.581
G2 X94.832 Y91.601 I-0.002 J0.02
G1 Z-1.421 F51.
G19 G3 Y91.68 Z-1.5 J0.079 K0.
G17 G3 X94.801 I-0.016 J0. F381.
X95.586 I0.393 J0.
X94.047 I-0.77 J0.
X96.34 I1.147 J0.
X93.293 I-1.524 J0.
X96.42 I1.563 J0.
X93.214 I-1.603 J0.
X96.42 I1.603 J0.
X96.4 Y91.7 I-0.02 J0.
G1 X93.313 Y91.778
G3 X93.293 Y91.759 I-0.001 J-0.02
G1 Z-1.65 F51.
G3 X93.214 Y91.68 I0. J-0.079 F381.
X96.42 I1.603 J0.
X93.214 I-1.603 J0.
G1 X93.364 Z-1.635
G0 Z5.
X122.27 Y96.601
G1 Z2.5 F51.
Z-0.071
G19 G3 Y96.68 Z-0.15 J0.079 K0.
G17 G3 X121.73 I-0.27 J0. F381.
X123.024 I0.647 J0.
X120.976 I-1.024 J0.
X123.103 I1.063 J0.
X120.897 I-1.103 J0.
X123.103 I1.103 J0.
X123.08 Y96.7 I-0.02 J0.
G1 X122.293 Y96.581
G2 X122.27 Y96.601 I-0.003 J0.02
G1 Z-0.221 F51.
G19 G3 Y96.68 Z-0.3 J0.079 K0.
G17 G3 X121.73 I-0.27 J0. F381.
X123.024 I0.647 J0.
X120.976 I-1.024 J0.
X123.103 I1.063 J0.
X120.897 I-1.103 J0.
X123.103 I1.103 J0.
X123.08 Y96.7 I-0.02 J0.
G1 X122.293 Y96.581
G2 X122.27 Y96.601 I-0.003 J0.02
G1 Z-0.371 F51.
G19 G3 Y96.68 Z-0.45 J0.079 K0.
G17 G3 X121.73 I-0.27 J0. F381.
X123.024 I0.647 J0.
X120.976 I-1.024 J0.
X123.103 I1.063 J0.
X120.897 I-1.103 J0.
X123.103 I1.103 J0.
X123.08 Y96.7 I-0.02 J0.
G1 X122.293 Y96.581
G2 X122.27 Y96.601 I-0.003 J0.02
G1 Z-0.521 F51.
G19 G3 Y96.68 Z-0.6 J0.079 K0.
G17 G3 X121.73 I-0.27 J0. F381.
X123.024 I0.647 J0.
X120.976 I-1.024 J0.
X123.103 I1.063 J0.
X120.897 I-1.103 J0.
X123.103 I1.103 J0.
X123.08 Y96.7 I-0.02 J0.
G1 X122.293 Y96.581
G2 X122.27 Y96.601 I-0.003 J0.02
G1 Z-0.671 F51.
G19 G3 Y96.68 Z-0.75 J0.079 K0.
G17 G3 X121.73 I-0.27 J0. F381.
X123.024 I0.647 J0.
X120.976 I-1.024 J0.
X123.103 I1.063 J0.
X120.897 I-1.103 J0.
X123.103 I1.103 J0.
X123.08 Y96.7 I-0.02 J0.
G1 X122.293 Y96.581
G2 X122.27 Y96.601 I-0.003 J0.02
G1 Z-0.821 F51.
G19 G3 Y96.68 Z-0.9 J0.079 K0.
G17 G3 X121.73 I-0.27 J0. F381.
X123.024 I0.647 J0.
X120.976 I-1.024 J0.
X123.103 I1.063 J0.
X120.897 I-1.103 J0.
X123.103 I1.103 J0.
X123.08 Y96.7 I-0.02 J0.
G1 X122.293 Y96.581
G2 X122.27 Y96.601 I-0.003 J0.02
G1 Z-0.971 F51.
G19 G3 Y96.68 Z-1.05 J0.079 K0.
G17 G3 X121.73 I-0.27 J0. F381.
X123.024 I0.647 J0.
X120.976 I-1.024 J0.
X123.103 I1.063 J0.
X120.897 I-1.103 J0.
X123.103 I1.103 J0.
X123.08 Y96.7 I-0.02 J0.
G1 X122.293 Y96.581
G2 X122.27 Y96.601 I-0.003 J0.02
G1 Z-1.121 F51.
G19 G3 Y96.68 Z-1.2 J0.079 K0.
G17 G3 X121.73 I-0.27 J0. F381.
X123.024 I0.647 J0.
X120.976 I-1.024 J0.
X123.103 I1.063 J0.
X120.897 I-1.103 J0.
X123.103 I1.103 J0.
X123.08 Y96.7 I-0.02 J0.
G1 X122.293 Y96.581
G2 X122.27 Y96.601 I-0.003 J0.02
G1 Z-1.271 F51.
G19 G3 Y96.68 Z-1.35 J0.079 K0.
G17 G3 X121.73 I-0.27 J0. F381.
X123.024 I0.647 J0.
X120.976 I-1.024 J0.
X123.103 I1.063 J0.
X120.897 I-1.103 J0.
X123.103 I1.103 J0.
X123.08 Y96.7 I-0.02 J0.
G1 X122.293 Y96.581
G2 X122.27 Y96.601 I-0.003 J0.02
G1 Z-1.421 F51.
G19 G3 Y96.68 Z-1.5 J0.079 K0.
G17 G3 X121.73 I-0.27 J0. F381.
X123.024 I0.647 J0.
X120.976 I-1.024 J0.
X123.103 I1.063 J0.
X120.897 I-1.103 J0.
X123.103 I1.103 J0.
X123.084 Y96.7 I-0.02 J0.
G1 X120.997 Y96.778
G3 X120.976 Y96.759 I-0.001 J-0.02
G1 Z-1.65 F51.
G3 X120.897 Y96.68 I0. J-0.079 F381.
X123.103 I1.103 J0.
X120.897 I-1.103 J0.
G1 X121.048 Z-1.635
G0 Z5.
X117.016 Y50.761
G1 Z2.5 F51.
Z-0.071
G19 G3 Y50.84 Z-0.15 J0.079 K0.
G17 G3 X116.984 I-0.016 J0. F381.
X117.77 I0.393 J0.
X116.23 I-0.77 J0.
X118.524 I1.147 J0.
X115.476 I-1.524 J0.
X118.603 I1.563 J0.
X115.397 I-1.603 J0.
X118.603 I1.603 J0.
X118.582 Y50.86 I-0.02 J0.
G1 X117.037 Y50.741
G2 X117.016 Y50.761 I-0.002 J0.02
G1 Z-0.221 F51.
G19 G3 Y50.84 Z-0.3 J0.079 K0.
G17 G3 X116.984 I-0.016 J0. F381.
X117.77 I0.393 J0.
X116.23 I-0.77 J0.
X118.524 I1.147 J0.
X115.476 I-1.524 J0.
X118.603 I1.563 J0.
X115.397 I-1.603 J0.
X118.603 I1.603 J0.
X118.582 Y50.86 I-0.02 J0.
G1 X117.037 Y50.741
G2 X117.016 Y50.761 I-0.002 J0.02
G1 Z-0.371 F51.
G19 G3 Y50.84 Z-0.45 J0.079 K0.
G17 G3 X116.984 I-0.016 J0. F381.
X117.77 I0.393 J0.
X116.23 I-0.77 J0.
X118.524 I1.147 J0.
X115.476 I-1.524 J0.
X118.603 I1.563 J0.
X115.397 I-1.603 J0.
X118.603 I1.603 J0.
X118.582 Y50.86 I-0.02 J0.
G1 X117.037 Y50.741
G2 X117.016 Y50.761 I-0.002 J0.02
G1 Z-0.521 F51.
G19 G3 Y50.84 Z-0.6 J0.079 K0.
G17 G3 X116.984 I-0.016 J0. F381.
X117.77 I0.393 J0.
X116.23 I-0.77 J0.
X118.524 I1.147 J0.
X115.476 I-1.524 J0.
X118.603 I1.563 J0.
X115.397 I-1.603 J0.
X118.603 I1.603 J0.
X118.582 Y50.86 I-0.02 J0.
G1 X117.037 Y50.741
G2 X117.016 Y50.761 I-0.002 J0.02
G1 Z-0.671 F51.
G19 G3 Y50.84 Z-0.75 J0.079 K0.
G17 G3 X116.984 I-0.016 J0. F381.
X117.77 I0.393 J0.
X116.23 I-0.77 J0.
X118.524 I1.147 J0.
X115.476 I-1.524 J0.
X118.603 I1.563 J0.
X115.397 I-1.603 J0.
X118.603 I1.603 J0.
X118.582 Y50.86 I-0.02 J0.
G1 X117.037 Y50.741
G2 X117.016 Y50.761 I-0.002 J0.02
G1 Z-0.821 F51.
G19 G3 Y50.84 Z-0.9 J0.079 K0.
G17 G3 X116.984 I-0.016 J0. F381.
X117.77 I0.393 J0.
X116.23 I-0.77 J0.
X118.524 I1.147 J0.
X115.476 I-1.524 J0.
X118.603 I1.563 J0.
X115.397 I-1.603 J0.
X118.603 I1.603 J0.
X118.582 Y50.86 I-0.02 J0.
G1 X117.037 Y50.741
G2 X117.016 Y50.761 I-0.002 J0.02
G1 Z-0.971 F51.
G19 G3 Y50.84 Z-1.05 J0.079 K0.
G17 G3 X116.984 I-0.016 J0. F381.
X117.77 I0.393 J0.
X116.23 I-0.77 J0.
X118.524 I1.147 J0.
X115.476 I-1.524 J0.
X118.603 I1.563 J0.
X115.397 I-1.603 J0.
X118.603 I1.603 J0.
X118.582 Y50.86 I-0.02 J0.
G1 X117.037 Y50.741
G2 X117.016 Y50.761 I-0.002 J0.02
G1 Z-1.121 F51.
G19 G3 Y50.84 Z-1.2 J0.079 K0.
G17 G3 X116.984 I-0.016 J0. F381.
X117.77 I0.393 J0.
X116.23 I-0.77 J0.
X118.524 I1.147 J0.
X115.476 I-1.524 J0.
X118.603 I1.563 J0.
X115.397 I-1.603 J0.
X118.603 I1.603 J0.
X118.582 Y50.86 I-0.02 J0.
G1 X117.037 Y50.741
G2 X117.016 Y50.761 I-0.002 J0.02
G1 Z-1.271 F51.
G19 G3 Y50.84 Z-1.35 J0.079 K0.
G17 G3 X116.984 I-0.016 J0. F381.
X117.77 I0.393 J0.
X116.23 I-0.77 J0.
X118.524 I1.147 J0.
X115.476 I-1.524 J0.
X118.603 I1.563 J0.
X115.397 I-1.603 J0.
X118.603 I1.603 J0.
X118.582 Y50.86 I-0.02 J0.
G1 X117.037 Y50.741
G2 X117.016 Y50.761 I-0.002 J0.02
G1 Z-1.421 F51.
G19 G3 Y50.84 Z-1.5 J0.079 K0.
G17 G3 X116.984 I-0.016 J0. F381.
X117.77 I0.393 J0.
X116.23 I-0.77 J0.
X118.524 I1.147 J0.
X115.476 I-1.524 J0.
X118.603 I1.563 J0.
X115.397 I-1.603 J0.
X118.603 I1.603 J0.
X118.584 Y50.86 I-0.02 J0.
G1 X115.497 Y50.938
G3 X115.476 Y50.919 I-0.001 J-0.02
G1 Z-1.65 F51.
G3 X115.397 Y50.84 I0. J-0.079 F381.
X118.603 I1.603 J0.
X115.397 I-1.603 J0.
G1 X115.548 Z-1.635
G0 Z5.
X122.27 Y4.921
G1 Z2.5 F51.
Z-0.071
G19 G3 Y5. Z-0.15 J0.079 K0.
G17 G3 X121.73 I-0.27 J0. F381.
X123.024 I0.647 J0.
X120.976 I-1.024 J0.
X123.103 I1.063 J0.
X120.897 I-1.103 J0.
X123.103 I1.103 J0.
X123.08 Y5.02 I-0.02 J0.
G1 X122.293 Y4.901
G2 X122.27 Y4.921 I-0.003 J0.02
G1 Z-0.221 F51.
G19 G3 Y5. Z-0.3 J0.079 K0.
G17 G3 X121.73 I-0.27 J0. F381.
X123.024 I0.647 J0.
X120.976 I-1.024 J0.
X123.103 I1.063 J0.
X120.897 I-1.103 J0.
X123.103 I1.103 J0.
X123.08 Y5.02 I-0.02 J0.
G1 X122.293 Y4.901
G2 X122.27 Y4.921 I-0.003 J0.02
G1 Z-0.371 F51.
G19 G3 Y5. Z-0.45 J0.079 K0.
G17 G3 X121.73 I-0.27 J0. F381.
X123.024 I0.647 J0.
X120.976 I-1.024 J0.
X123.103 I1.063 J0.
X120.897 I-1.103 J0.
X123.103 I1.103 J0.
X123.08 Y5.02 I-0.02 J0.
G1 X122.293 Y4.901
G2 X122.27 Y4.921 I-0.003 J0.02
G1 Z-0.521 F51.
G19 G3 Y5. Z-0.6 J0.079 K0.
G17 G3 X121.73 I-0.27 J0. F381.
X123.024 I0.647 J0.
X120.976 I-1.024 J0.
X123.103 I1.063 J0.
X120.897 I-1.103 J0.
X123.103 I1.103 J0.
X123.08 Y5.02 I-0.02 J0.
G1 X122.293 Y4.901
G2 X122.27 Y4.921 I-0.003 J0.02
G1 Z-0.671 F51.
G19 G3 Y5. Z-0.75 J0.079 K0.
G17 G3 X121.73 I-0.27 J0. F381.
X123.024 I0.647 J0.
X120.976 I-1.024 J0.
X123.103 I1.063 J0.
X120.897 I-1.103 J0.
X123.103 I1.103 J0.
X123.08 Y5.02 I-0.02 J0.
G1 X122.293 Y4.901
G2 X122.27 Y4.921 I-0.003 J0.02
G1 Z-0.821 F51.
G19 G3 Y5. Z-0.9 J0.079 K0.
G17 G3 X121.73 I-0.27 J0. F381.
X123.024 I0.647 J0.
X120.976 I-1.024 J0.
X123.103 I1.063 J0.
X120.897 I-1.103 J0.
X123.103 I1.103 J0.
X123.08 Y5.02 I-0.02 J0.
G1 X122.293 Y4.901
G2 X122.27 Y4.921 I-0.003 J0.02
G1 Z-0.971 F51.
G19 G3 Y5. Z-1.05 J0.079 K0.
G17 G3 X121.73 I-0.27 J0. F381.
X123.024 I0.647 J0.
X120.976 I-1.024 J0.
X123.103 I1.063 J0.
X120.897 I-1.103 J0.
X123.103 I1.103 J0.
X123.08 Y5.02 I-0.02 J0.
G1 X122.293 Y4.901
G2 X122.27 Y4.921 I-0.003 J0.02
G1 Z-1.121 F51.
G19 G3 Y5. Z-1.2 J0.079 K0.
G17 G3 X121.73 I-0.27 J0. F381.
X123.024 I0.647 J0.
X120.976 I-1.024 J0.
X123.103 I1.063 J0.
X120.897 I-1.103 J0.
X123.103 I1.103 J0.
X123.08 Y5.02 I-0.02 J0.
G1 X122.293 Y4.901
G2 X122.27 Y4.921 I-0.003 J0.02
G1 Z-1.271 F51.
G19 G3 Y5. Z-1.35 J0.079 K0.
G17 G3 X121.73 I-0.27 J0. F381.
X123.024 I0.647 J0.
X120.976 I-1.024 J0.
X123.103 I1.063 J0.
X120.897 I-1.103 J0.
X123.103 I1.103 J0.
X123.08 Y5.02 I-0.02 J0.
G1 X122.293 Y4.901
G2 X122.27 Y4.921 I-0.003 J0.02
G1 Z-1.421 F51.
G19 G3 Y5. Z-1.5 J0.079 K0.
G17 G3 X121.73 I-0.27 J0. F381.
X123.024 I0.647 J0.
X120.976 I-1.024 J0.
X123.103 I1.063 J0.
X120.897 I-1.103 J0.
X123.103 I1.103 J0.
X123.083 Y5.02 I-0.02 J0.
X123.063 Y5. I0. J-0.02
G1 X123.064 Y4.919
G2 X123.043 Y4.899 I-0.02 J0.
X123.024 Y4.921 I0.001 J0.02
G1 Z-1.65 F51.
G3 X123.103 Y5. I0. J0.079 F381.
X120.897 I-1.103 J0.
X123.103 I1.103 J0.
G1 X122.952 Z-1.635
G0 Z15.

M9
G53 Z0.
M30
